(G-CODE GENERATED BY FLATCAM v8.994 - www.flatcam.org - Version Date: 2020/11/7)

(Name: Gerber_BoardOutlineLayer.GKO_cutout_cnc)
(Type: G-code from Geometry)
(Units: MM)

(Created on Tuesday, 18 November 2025 at 17:11)

/TOOL DIAMETER = ДИАМЕТР ИНСТРУМЕНТА: 2.0 mm
/Feedrate_XY = подача XY: 300.0 mm/min
/Feedrate_Z = подача Z: 500.0 mm/min
/Feedrate rapids = быстрая подача1500.0 mm/min

/Z_Cut = проходы по Z: -1.8 mm
/DepthPerCut = углубиться за проход: 0.6 mm <=>3 passes
/Z_Move: 2.0 mm
/Z Start: None mm
/Z End: 15.0 mm
/X,Y End: None mm
(Steps per circle: 64)
/Steps per circle: 64
/Preprocessor Geometry: Charly4U

/X range:   -1.1000 ...  124.0361  mm
/Y range:   -1.1000 ...   83.1421  mm

/Скорость шпинделя: 20000.0 RPM
G71 / измерения в мм
G90 / программирование в абсолютных координатах

F300
/Tool switching while working is not supported! = Смена инструмента в процессе работы не поддерживается!
M3 S20000.0
F300
G0 X-1.1000 Y81.9151
F500
G1 Z-0.6000 F500
F300
G1 X-1.0981 Y81.9815
G1 X-1.0875 Y82.0889
G1 X-1.0857 Y82.1013
G1 X-1.0646 Y82.2071
G1 X-1.0616 Y82.2192
G1 X-1.0302 Y82.3225
G1 X-1.0260 Y82.3343
G1 X-0.9847 Y82.4340
G1 X-0.9794 Y82.4453
G1 X-0.9285 Y82.5405
G1 X-0.9221 Y82.5512
G1 X-0.8621 Y82.6409
G1 X-0.8547 Y82.6509
G1 X-0.7862 Y82.7344
G1 X-0.7778 Y82.7436
G1 X-0.7015 Y82.8200
G1 X-0.6923 Y82.8283
G1 X-0.6088 Y82.8968
G1 X-0.5988 Y82.9042
G1 X-0.5090 Y82.9642
G1 X-0.4983 Y82.9706
G1 X-0.4031 Y83.0215
G1 X-0.3919 Y83.0268
G1 X-0.2921 Y83.0681
G1 X-0.2804 Y83.0723
G1 X-0.1771 Y83.1037
G1 X-0.1650 Y83.1067
G1 X-0.0591 Y83.1278
G1 X-0.0468 Y83.1296
G1 X0.0606 Y83.1402
G1 X0.1271 Y83.1421
G1 X122.8091 Y83.1421
G1 X122.8755 Y83.1402
G1 X122.9829 Y83.1296
G1 X122.9953 Y83.1278
G1 X123.1011 Y83.1067
G1 X123.1132 Y83.1037
G1 X123.2165 Y83.0723
G1 X123.2283 Y83.0681
G1 X123.3280 Y83.0268
G1 X123.3393 Y83.0215
G1 X123.4345 Y82.9706
G1 X123.4452 Y82.9642
G1 X123.5349 Y82.9042
G1 X123.5449 Y82.8968
G1 X123.6284 Y82.8283
G1 X123.6376 Y82.8200
G1 X123.7140 Y82.7436
G1 X123.7223 Y82.7344
G1 X123.7908 Y82.6509
G1 X123.7982 Y82.6409
G1 X123.8582 Y82.5512
G1 X123.8646 Y82.5405
G1 X123.9155 Y82.4453
G1 X123.9208 Y82.4340
G1 X123.9621 Y82.3343
G1 X123.9663 Y82.3225
G1 X123.9977 Y82.2192
G1 X124.0007 Y82.2071
G1 X124.0218 Y82.1013
G1 X124.0236 Y82.0889
G1 X124.0342 Y81.9815
G1 X124.0361 Y81.9151
G1 X124.0361 Y0.1271
G1 X124.0342 Y0.0606
G1 X124.0236 Y-0.0468
G1 X124.0218 Y-0.0591
G1 X124.0007 Y-0.1650
G1 X123.9977 Y-0.1771
G1 X123.9663 Y-0.2804
G1 X123.9621 Y-0.2921
G1 X123.9208 Y-0.3919
G1 X123.9155 Y-0.4031
G1 X123.8646 Y-0.4983
G1 X123.8582 Y-0.5090
G1 X123.7982 Y-0.5988
G1 X123.7908 Y-0.6088
G1 X123.7223 Y-0.6923
G1 X123.7140 Y-0.7015
G1 X123.6376 Y-0.7778
G1 X123.6284 Y-0.7862
G1 X123.5449 Y-0.8547
G1 X123.5349 Y-0.8621
G1 X123.4452 Y-0.9221
G1 X123.4345 Y-0.9285
G1 X123.3393 Y-0.9794
G1 X123.3280 Y-0.9847
G1 X123.2283 Y-1.0260
G1 X123.2165 Y-1.0302
G1 X123.1132 Y-1.0616
G1 X123.1011 Y-1.0646
G1 X122.9953 Y-1.0857
G1 X122.9829 Y-1.0875
G1 X122.8755 Y-1.0981
G1 X122.8091 Y-1.1000
G1 X0.1271 Y-1.1000
G1 X0.0606 Y-1.0981
G1 X-0.0468 Y-1.0875
G1 X-0.0591 Y-1.0857
G1 X-0.1650 Y-1.0646
G1 X-0.1771 Y-1.0616
G1 X-0.2804 Y-1.0302
G1 X-0.2921 Y-1.0260
G1 X-0.3919 Y-0.9847
G1 X-0.4031 Y-0.9794
G1 X-0.4983 Y-0.9285
G1 X-0.5090 Y-0.9221
G1 X-0.5988 Y-0.8621
G1 X-0.6088 Y-0.8547
G1 X-0.6923 Y-0.7862
G1 X-0.7015 Y-0.7778
G1 X-0.7778 Y-0.7015
G1 X-0.7862 Y-0.6923
G1 X-0.8547 Y-0.6088
G1 X-0.8621 Y-0.5988
G1 X-0.9221 Y-0.5090
G1 X-0.9285 Y-0.4983
G1 X-0.9794 Y-0.4031
G1 X-0.9847 Y-0.3919
G1 X-1.0260 Y-0.2921
G1 X-1.0302 Y-0.2804
G1 X-1.0616 Y-0.1771
G1 X-1.0646 Y-0.1650
G1 X-1.0857 Y-0.0591
G1 X-1.0875 Y-0.0468
G1 X-1.0981 Y0.0606
G1 X-1.1000 Y0.1271
G1 X-1.1000 Y81.9151
G0 X-1.1000 Y81.9151
F500
G1 Z-1.2000 F500
F300
G1 X-1.1000 Y0.1271
G1 X-1.0981 Y0.0606
G1 X-1.0875 Y-0.0468
G1 X-1.0857 Y-0.0591
G1 X-1.0646 Y-0.1650
G1 X-1.0616 Y-0.1771
G1 X-1.0302 Y-0.2804
G1 X-1.0260 Y-0.2921
G1 X-0.9847 Y-0.3919
G1 X-0.9794 Y-0.4031
G1 X-0.9285 Y-0.4983
G1 X-0.9221 Y-0.5090
G1 X-0.8621 Y-0.5988
G1 X-0.8547 Y-0.6088
G1 X-0.7862 Y-0.6923
G1 X-0.7778 Y-0.7015
G1 X-0.7015 Y-0.7778
G1 X-0.6923 Y-0.7862
G1 X-0.6088 Y-0.8547
G1 X-0.5988 Y-0.8621
G1 X-0.5090 Y-0.9221
G1 X-0.4983 Y-0.9285
G1 X-0.4031 Y-0.9794
G1 X-0.3919 Y-0.9847
G1 X-0.2921 Y-1.0260
G1 X-0.2804 Y-1.0302
G1 X-0.1771 Y-1.0616
G1 X-0.1650 Y-1.0646
G1 X-0.0591 Y-1.0857
G1 X-0.0468 Y-1.0875
G1 X0.0606 Y-1.0981
G1 X0.1271 Y-1.1000
G1 X122.8091 Y-1.1000
G1 X122.8755 Y-1.0981
G1 X122.9829 Y-1.0875
G1 X122.9953 Y-1.0857
G1 X123.1011 Y-1.0646
G1 X123.1132 Y-1.0616
G1 X123.2165 Y-1.0302
G1 X123.2283 Y-1.0260
G1 X123.3280 Y-0.9847
G1 X123.3393 Y-0.9794
G1 X123.4345 Y-0.9285
G1 X123.4452 Y-0.9221
G1 X123.5349 Y-0.8621
G1 X123.5449 Y-0.8547
G1 X123.6284 Y-0.7862
G1 X123.6376 Y-0.7778
G1 X123.7140 Y-0.7015
G1 X123.7223 Y-0.6923
G1 X123.7908 Y-0.6088
G1 X123.7982 Y-0.5988
G1 X123.8582 Y-0.5090
G1 X123.8646 Y-0.4983
G1 X123.9155 Y-0.4031
G1 X123.9208 Y-0.3919
G1 X123.9621 Y-0.2921
G1 X123.9663 Y-0.2804
G1 X123.9977 Y-0.1771
G1 X124.0007 Y-0.1650
G1 X124.0218 Y-0.0591
G1 X124.0236 Y-0.0468
G1 X124.0342 Y0.0606
G1 X124.0361 Y0.1271
G1 X124.0361 Y81.9151
G1 X124.0342 Y81.9815
G1 X124.0236 Y82.0889
G1 X124.0218 Y82.1013
G1 X124.0007 Y82.2071
G1 X123.9977 Y82.2192
G1 X123.9663 Y82.3225
G1 X123.9621 Y82.3343
G1 X123.9208 Y82.4340
G1 X123.9155 Y82.4453
G1 X123.8646 Y82.5405
G1 X123.8582 Y82.5512
G1 X123.7982 Y82.6409
G1 X123.7908 Y82.6509
G1 X123.7223 Y82.7344
G1 X123.7140 Y82.7436
G1 X123.6376 Y82.8200
G1 X123.6284 Y82.8283
G1 X123.5449 Y82.8968
G1 X123.5349 Y82.9042
G1 X123.4452 Y82.9642
G1 X123.4345 Y82.9706
G1 X123.3393 Y83.0215
G1 X123.3280 Y83.0268
G1 X123.2283 Y83.0681
G1 X123.2165 Y83.0723
G1 X123.1132 Y83.1037
G1 X123.1011 Y83.1067
G1 X122.9953 Y83.1278
G1 X122.9829 Y83.1296
G1 X122.8755 Y83.1402
G1 X122.8091 Y83.1421
G1 X0.1271 Y83.1421
G1 X0.0606 Y83.1402
G1 X-0.0468 Y83.1296
G1 X-0.0591 Y83.1278
G1 X-0.1650 Y83.1067
G1 X-0.1771 Y83.1037
G1 X-0.2804 Y83.0723
G1 X-0.2921 Y83.0681
G1 X-0.3919 Y83.0268
G1 X-0.4031 Y83.0215
G1 X-0.4983 Y82.9706
G1 X-0.5090 Y82.9642
G1 X-0.5988 Y82.9042
G1 X-0.6088 Y82.8968
G1 X-0.6923 Y82.8283
G1 X-0.7015 Y82.8200
G1 X-0.7778 Y82.7436
G1 X-0.7862 Y82.7344
G1 X-0.8547 Y82.6509
G1 X-0.8621 Y82.6409
G1 X-0.9221 Y82.5512
G1 X-0.9285 Y82.5405
G1 X-0.9794 Y82.4453
G1 X-0.9847 Y82.4340
G1 X-1.0260 Y82.3343
G1 X-1.0302 Y82.3225
G1 X-1.0616 Y82.2192
G1 X-1.0646 Y82.2071
G1 X-1.0857 Y82.1013
G1 X-1.0875 Y82.0889
G1 X-1.0981 Y81.9815
G1 X-1.1000 Y81.9151
G0 X-1.1000 Y81.9151
F500
G1 Z-1.8000 F500
F300
G1 X-1.0981 Y81.9815
G1 X-1.0875 Y82.0889
G1 X-1.0857 Y82.1013
G1 X-1.0646 Y82.2071
G1 X-1.0616 Y82.2192
G1 X-1.0302 Y82.3225
G1 X-1.0260 Y82.3343
G1 X-0.9847 Y82.4340
G1 X-0.9794 Y82.4453
G1 X-0.9285 Y82.5405
G1 X-0.9221 Y82.5512
G1 X-0.8621 Y82.6409
G1 X-0.8547 Y82.6509
G1 X-0.7862 Y82.7344
G1 X-0.7778 Y82.7436
G1 X-0.7015 Y82.8200
G1 X-0.6923 Y82.8283
G1 X-0.6088 Y82.8968
G1 X-0.5988 Y82.9042
G1 X-0.5090 Y82.9642
G1 X-0.4983 Y82.9706
G1 X-0.4031 Y83.0215
G1 X-0.3919 Y83.0268
G1 X-0.2921 Y83.0681
G1 X-0.2804 Y83.0723
G1 X-0.1771 Y83.1037
G1 X-0.1650 Y83.1067
G1 X-0.0591 Y83.1278
G1 X-0.0468 Y83.1296
G1 X0.0606 Y83.1402
G1 X0.1271 Y83.1421
G1 X122.8091 Y83.1421
G1 X122.8755 Y83.1402
G1 X122.9829 Y83.1296
G1 X122.9953 Y83.1278
G1 X123.1011 Y83.1067
G1 X123.1132 Y83.1037
G1 X123.2165 Y83.0723
G1 X123.2283 Y83.0681
G1 X123.3280 Y83.0268
G1 X123.3393 Y83.0215
G1 X123.4345 Y82.9706
G1 X123.4452 Y82.9642
G1 X123.5349 Y82.9042
G1 X123.5449 Y82.8968
G1 X123.6284 Y82.8283
G1 X123.6376 Y82.8200
G1 X123.7140 Y82.7436
G1 X123.7223 Y82.7344
G1 X123.7908 Y82.6509
G1 X123.7982 Y82.6409
G1 X123.8582 Y82.5512
G1 X123.8646 Y82.5405
G1 X123.9155 Y82.4453
G1 X123.9208 Y82.4340
G1 X123.9621 Y82.3343
G1 X123.9663 Y82.3225
G1 X123.9977 Y82.2192
G1 X124.0007 Y82.2071
G1 X124.0218 Y82.1013
G1 X124.0236 Y82.0889
G1 X124.0342 Y81.9815
G1 X124.0361 Y81.9151
G1 X124.0361 Y0.1271
G1 X124.0342 Y0.0606
G1 X124.0236 Y-0.0468
G1 X124.0218 Y-0.0591
G1 X124.0007 Y-0.1650
G1 X123.9977 Y-0.1771
G1 X123.9663 Y-0.2804
G1 X123.9621 Y-0.2921
G1 X123.9208 Y-0.3919
G1 X123.9155 Y-0.4031
G1 X123.8646 Y-0.4983
G1 X123.8582 Y-0.5090
G1 X123.7982 Y-0.5988
G1 X123.7908 Y-0.6088
G1 X123.7223 Y-0.6923
G1 X123.7140 Y-0.7015
G1 X123.6376 Y-0.7778
G1 X123.6284 Y-0.7862
G1 X123.5449 Y-0.8547
G1 X123.5349 Y-0.8621
G1 X123.4452 Y-0.9221
G1 X123.4345 Y-0.9285
G1 X123.3393 Y-0.9794
G1 X123.3280 Y-0.9847
G1 X123.2283 Y-1.0260
G1 X123.2165 Y-1.0302
G1 X123.1132 Y-1.0616
G1 X123.1011 Y-1.0646
G1 X122.9953 Y-1.0857
G1 X122.9829 Y-1.0875
G1 X122.8755 Y-1.0981
G1 X122.8091 Y-1.1000
G1 X0.1271 Y-1.1000
G1 X0.0606 Y-1.0981
G1 X-0.0468 Y-1.0875
G1 X-0.0591 Y-1.0857
G1 X-0.1650 Y-1.0646
G1 X-0.1771 Y-1.0616
G1 X-0.2804 Y-1.0302
G1 X-0.2921 Y-1.0260
G1 X-0.3919 Y-0.9847
G1 X-0.4031 Y-0.9794
G1 X-0.4983 Y-0.9285
G1 X-0.5090 Y-0.9221
G1 X-0.5988 Y-0.8621
G1 X-0.6088 Y-0.8547
G1 X-0.6923 Y-0.7862
G1 X-0.7015 Y-0.7778
G1 X-0.7778 Y-0.7015
G1 X-0.7862 Y-0.6923
G1 X-0.8547 Y-0.6088
G1 X-0.8621 Y-0.5988
G1 X-0.9221 Y-0.5090
G1 X-0.9285 Y-0.4983
G1 X-0.9794 Y-0.4031
G1 X-0.9847 Y-0.3919
G1 X-1.0260 Y-0.2921
G1 X-1.0302 Y-0.2804
G1 X-1.0616 Y-0.1771
G1 X-1.0646 Y-0.1650
G1 X-1.0857 Y-0.0591
G1 X-1.0875 Y-0.0468
G1 X-1.0981 Y0.0606
G1 X-1.1000 Y0.1271
G1 X-1.1000 Y81.9151
G0 Z2.0000
M5 / выключение шпинделя
G0 Z2.0000
G0 Z15.00 X0 Y0


