(G-CODE GENERATED BY FLATCAM v8.994 - www.flatcam.org - Version Date: 2020/11/7)

(Name: Gerber_TopLayer.GTL_iso_combined_cnc)
(Type: G-code from Geometry)
(Units: MM)

(Created on Tuesday, 18 November 2025 at 17:03)

/TOOL DIAMETER = ДИАМЕТР ИНСТРУМЕНТА: 0.2 mm
/Feedrate_XY = подача XY: 300.0 mm/min
/Feedrate_Z = подача Z: 500.0 mm/min
/Feedrate rapids = быстрая подача1500.0 mm/min

/Z_Cut = проходы по Z: 0.0 mm
/Z_Move: 2.0 mm
/Z Start: None mm
/Z End: 15.0 mm
/X,Y End: None mm
(Steps per circle: 64)
/Steps per circle: 64
/Preprocessor Geometry: Charly4U

/X range:   -0.8200 ...  122.9838  mm
/Y range:   -0.8200 ...   82.0898  mm

/Скорость шпинделя: 20000.0 RPM
G71 / измерения в мм
G90 / программирование в абсолютных координатах

F300
/Tool switching while working is not supported! = Смена инструмента в процессе работы не поддерживается!
M3 S20000.0
F300
G0 X5.0735 Y8.3134
F500
G1 Z0.0000 F500
F300
G1 X5.0735 Y8.7278
G1 X4.6368 Y8.7278
G1 X4.6270 Y8.7283
G1 X4.6149 Y8.7302
G1 X4.6031 Y8.7336
G1 X4.5918 Y8.7384
G1 X4.5812 Y8.7446
G1 X4.5715 Y8.7520
G1 X4.5643 Y8.7588
G1 X4.5564 Y8.7682
G1 X4.5498 Y8.7785
G1 X4.5444 Y8.7895
G1 X4.5404 Y8.8011
G1 X4.5379 Y8.8131
G1 X4.5368 Y8.8253
G1 X4.5368 Y9.2645
G1 X4.1223 Y9.2645
G1 X4.1223 Y8.8359
G1 X4.1291 Y8.7477
G1 X4.1482 Y8.6690
G1 X4.1789 Y8.5945
G1 X4.2208 Y8.5259
G1 X4.2736 Y8.4646
G1 X4.3349 Y8.4118
G1 X4.4035 Y8.3699
G1 X4.4780 Y8.3392
G1 X4.5567 Y8.3201
G1 X4.6449 Y8.3134
G1 X5.0735 Y8.3134
G0 Z2.0000
G0 X4.8935 Y8.4934
F500
G1 Z0.0000 F500
F300
G1 X4.8935 Y8.5478
G1 X4.6299 Y8.5479
G1 X4.6093 Y8.5491
G1 X4.5889 Y8.5519
G1 X4.5754 Y8.5546
G1 X4.5621 Y8.5579
G1 X4.5424 Y8.5641
G1 X4.5233 Y8.5718
G1 X4.5048 Y8.5808
G1 X4.4870 Y8.5912
G1 X4.4700 Y8.6029
G1 X4.4539 Y8.6158
G1 X4.4388 Y8.6298
G1 X4.4248 Y8.6449
G1 X4.4119 Y8.6610
G1 X4.4002 Y8.6780
G1 X4.3898 Y8.6958
G1 X4.3808 Y8.7143
G1 X4.3755 Y8.7270
G1 X4.3709 Y8.7399
G1 X4.3652 Y8.7597
G1 X4.3609 Y8.7799
G1 X4.3581 Y8.8003
G1 X4.3569 Y8.8209
G1 X4.3568 Y9.0845
G1 X4.3023 Y9.0845
G1 X4.3023 Y8.8428
G1 X4.3074 Y8.7760
G1 X4.3199 Y8.7249
G1 X4.3399 Y8.6762
G1 X4.3667 Y8.6323
G1 X4.4012 Y8.5922
G1 X4.4413 Y8.5577
G1 X4.4852 Y8.5309
G1 X4.5339 Y8.5109
G1 X4.5850 Y8.4984
G1 X4.6517 Y8.4934
G1 X4.8935 Y8.4934
G0 Z2.0000
G0 X7.0221 Y8.4934
F500
G1 Z0.0000 F500
F300
G1 X7.0889 Y8.4984
G1 X7.1400 Y8.5109
G1 X7.1886 Y8.5309
G1 X7.2326 Y8.5577
G1 X7.2726 Y8.5922
G1 X7.3071 Y8.6323
G1 X7.3339 Y8.6762
G1 X7.3540 Y8.7249
G1 X7.3664 Y8.7760
G1 X7.3715 Y8.8428
G1 X7.3715 Y9.0845
G1 X7.3171 Y9.0845
G1 X7.3170 Y8.8209
G1 X7.3163 Y8.8072
G1 X7.3150 Y8.7935
G1 X7.3117 Y8.7731
G1 X7.3069 Y8.7531
G1 X7.3029 Y8.7399
G1 X7.2983 Y8.7270
G1 X7.2902 Y8.7081
G1 X7.2807 Y8.6898
G1 X7.2699 Y8.6722
G1 X7.2578 Y8.6555
G1 X7.2491 Y8.6449
G1 X7.2399 Y8.6347
G1 X7.2251 Y8.6203
G1 X7.2093 Y8.6070
G1 X7.1926 Y8.5950
G1 X7.1751 Y8.5841
G1 X7.1568 Y8.5747
G1 X7.1378 Y8.5665
G1 X7.1249 Y8.5619
G1 X7.1051 Y8.5562
G1 X7.0849 Y8.5519
G1 X7.0645 Y8.5491
G1 X7.0439 Y8.5479
G1 X6.7804 Y8.5478
G1 X6.7804 Y8.4934
G1 X7.0221 Y8.4934
G0 Z2.0000
G0 X7.0290 Y8.3134
F500
G1 Z0.0000 F500
F300
G1 X7.1171 Y8.3201
G1 X7.1958 Y8.3392
G1 X7.2703 Y8.3699
G1 X7.3389 Y8.4118
G1 X7.4002 Y8.4646
G1 X7.4531 Y8.5259
G1 X7.4950 Y8.5945
G1 X7.5256 Y8.6690
G1 X7.5448 Y8.7477
G1 X7.5515 Y8.8359
G1 X7.5515 Y9.2645
G1 X7.1371 Y9.2645
G1 X7.1371 Y8.8278
G1 X7.1366 Y8.8180
G1 X7.1346 Y8.8059
G1 X7.1312 Y8.7941
G1 X7.1264 Y8.7828
G1 X7.1202 Y8.7722
G1 X7.1128 Y8.7625
G1 X7.1060 Y8.7553
G1 X7.0966 Y8.7474
G1 X7.0864 Y8.7408
G1 X7.0753 Y8.7354
G1 X7.0637 Y8.7314
G1 X7.0517 Y8.7289
G1 X7.0395 Y8.7278
G1 X6.6004 Y8.7278
G1 X6.6004 Y8.3134
G1 X7.0290 Y8.3134
G0 Z2.0000
G0 X7.2990 Y11.6684
F500
G1 Z0.0000 F500
F300
G1 X7.2990 Y10.7914
G1 X7.5515 Y10.7914
G1 X7.5515 Y11.2199
G1 X7.5448 Y11.3081
G1 X7.5256 Y11.3868
G1 X7.4950 Y11.4613
G1 X7.4531 Y11.5299
G1 X7.4002 Y11.5913
G1 X7.3389 Y11.6441
G1 X7.2990 Y11.6684
G0 Z2.0000
G0 X4.5368 Y10.7914
F500
G1 Z0.0000 F500
F300
G1 X4.5368 Y11.2305
G1 X4.5379 Y11.2427
G1 X4.5404 Y11.2547
G1 X4.5444 Y11.2663
G1 X4.5498 Y11.2774
G1 X4.5550 Y11.2856
G1 X4.5627 Y11.2952
G1 X4.5715 Y11.3038
G1 X4.5812 Y11.3112
G1 X4.5918 Y11.3174
G1 X4.6031 Y11.3222
G1 X4.6149 Y11.3256
G1 X4.6270 Y11.3276
G1 X4.6368 Y11.3281
G1 X5.0735 Y11.3281
G1 X5.0735 Y11.7425
G1 X4.6449 Y11.7425
G1 X4.5567 Y11.7358
G1 X4.4780 Y11.7166
G1 X4.4035 Y11.6860
G1 X4.3349 Y11.6441
G1 X4.2736 Y11.5913
G1 X4.2208 Y11.5299
G1 X4.1789 Y11.4613
G1 X4.1482 Y11.3868
G1 X4.1291 Y11.3081
G1 X4.1223 Y11.2199
G1 X4.1223 Y10.7914
G1 X4.5368 Y10.7914
G0 Z2.0000
G0 X4.3568 Y10.9714
F500
G1 Z0.0000 F500
F300
G1 X4.3569 Y11.2349
G1 X4.3581 Y11.2555
G1 X4.3609 Y11.2759
G1 X4.3652 Y11.2961
G1 X4.3709 Y11.3159
G1 X4.3755 Y11.3288
G1 X4.3837 Y11.3478
G1 X4.3931 Y11.3661
G1 X4.4040 Y11.3836
G1 X4.4160 Y11.4003
G1 X4.4293 Y11.4161
G1 X4.4388 Y11.4261
G1 X4.4487 Y11.4355
G1 X4.4645 Y11.4488
G1 X4.4812 Y11.4609
G1 X4.4988 Y11.4717
G1 X4.5171 Y11.4812
G1 X4.5360 Y11.4893
G1 X4.5489 Y11.4939
G1 X4.5621 Y11.4979
G1 X4.5821 Y11.5027
G1 X4.5957 Y11.5050
G1 X4.6093 Y11.5067
G1 X4.6299 Y11.5080
G1 X4.8935 Y11.5081
G1 X4.8935 Y11.5625
G1 X4.6517 Y11.5625
G1 X4.5850 Y11.5574
G1 X4.5339 Y11.5450
G1 X4.4852 Y11.5249
G1 X4.4413 Y11.4981
G1 X4.4012 Y11.4636
G1 X4.3667 Y11.4236
G1 X4.3399 Y11.3796
G1 X4.3199 Y11.3310
G1 X4.3074 Y11.2798
G1 X4.3023 Y11.2131
G1 X4.3023 Y10.9714
G1 X4.3568 Y10.9714
G0 Z2.0000
G0 X9.1133 Y18.8682
F500
G1 Z0.0000 F500
F300
G1 X9.1129 Y18.8544
G1 X9.1133 Y18.8407
G1 X9.1169 Y18.7660
G1 X9.1179 Y18.7523
G1 X9.1196 Y18.7386
G1 X9.1306 Y18.6647
G1 X9.1329 Y18.6511
G1 X9.1360 Y18.6377
G1 X9.1541 Y18.5652
G1 X9.1578 Y18.5519
G1 X9.1621 Y18.5389
G1 X9.1873 Y18.4685
G1 X9.1922 Y18.4557
G1 X9.1978 Y18.4431
G1 X9.2298 Y18.3755
G1 X9.2360 Y18.3632
G1 X9.2427 Y18.3513
G1 X9.2812 Y18.2871
G1 X9.2885 Y18.2755
G1 X9.2964 Y18.2643
G1 X9.3410 Y18.2042
G1 X9.3494 Y18.1934
G1 X9.3584 Y18.1830
G1 X9.4086 Y18.1276
G1 X9.4181 Y18.1176
G1 X9.4281 Y18.1081
G1 X9.4835 Y18.0579
G1 X9.4939 Y18.0489
G1 X9.5047 Y18.0405
G1 X9.5648 Y17.9959
G1 X9.5760 Y17.9880
G1 X9.5876 Y17.9807
G1 X9.6518 Y17.9422
G1 X9.6637 Y17.9355
G1 X9.6760 Y17.9293
G1 X9.7436 Y17.8973
G1 X9.7562 Y17.8917
G1 X9.7690 Y17.8868
G1 X9.8394 Y17.8616
G1 X9.8524 Y17.8573
G1 X9.8657 Y17.8536
G1 X9.9382 Y17.8355
G1 X9.9516 Y17.8324
G1 X9.9652 Y17.8301
G1 X10.0391 Y17.8191
G1 X10.0528 Y17.8174
G1 X10.0665 Y17.8164
G1 X10.1412 Y17.8128
G1 X10.1549 Y17.8124
G1 X10.1687 Y17.8128
G1 X10.2433 Y17.8164
G1 X10.2571 Y17.8174
G1 X10.2707 Y17.8191
G1 X10.3447 Y17.8301
G1 X10.3582 Y17.8324
G1 X10.3716 Y17.8355
G1 X10.4441 Y17.8536
G1 X10.4574 Y17.8573
G1 X10.4704 Y17.8616
G1 X10.5409 Y17.8868
G1 X10.5537 Y17.8917
G1 X10.5662 Y17.8973
G1 X10.6338 Y17.9293
G1 X10.6461 Y17.9355
G1 X10.6581 Y17.9422
G1 X10.7222 Y17.9807
G1 X10.7338 Y17.9880
G1 X10.7451 Y17.9959
G1 X10.8051 Y18.0405
G1 X10.8160 Y18.0489
G1 X10.8264 Y18.0579
G1 X10.8818 Y18.1081
G1 X10.8917 Y18.1176
G1 X10.9012 Y18.1276
G1 X10.9514 Y18.1830
G1 X10.9604 Y18.1934
G1 X10.9688 Y18.2042
G1 X11.0134 Y18.2643
G1 X11.0213 Y18.2755
G1 X11.0287 Y18.2871
G1 X11.0671 Y18.3513
G1 X11.0739 Y18.3632
G1 X11.0801 Y18.3755
G1 X11.1120 Y18.4431
G1 X11.1176 Y18.4557
G1 X11.1225 Y18.4685
G1 X11.1477 Y18.5389
G1 X11.1520 Y18.5519
G1 X11.1557 Y18.5652
G1 X11.1739 Y18.6377
G1 X11.1769 Y18.6511
G1 X11.1792 Y18.6647
G1 X11.1902 Y18.7386
G1 X11.1919 Y18.7523
G1 X11.1929 Y18.7660
G1 X11.1966 Y18.8407
G1 X11.1969 Y18.8544
G1 X11.1966 Y18.8682
G1 X11.1929 Y18.9428
G1 X11.1919 Y18.9566
G1 X11.1902 Y18.9702
G1 X11.1792 Y19.0442
G1 X11.1769 Y19.0577
G1 X11.1739 Y19.0711
G1 X11.1557 Y19.1436
G1 X11.1520 Y19.1569
G1 X11.1477 Y19.1699
G1 X11.1225 Y19.2404
G1 X11.1176 Y19.2532
G1 X11.1120 Y19.2657
G1 X11.0801 Y19.3333
G1 X11.0739 Y19.3456
G1 X11.0671 Y19.3576
G1 X11.0287 Y19.4217
G1 X11.0213 Y19.4333
G1 X11.0134 Y19.4446
G1 X10.9688 Y19.5046
G1 X10.9604 Y19.5155
G1 X10.9514 Y19.5259
G1 X10.9012 Y19.5813
G1 X10.8917 Y19.5912
G1 X10.8818 Y19.6007
G1 X10.8264 Y19.6509
G1 X10.8160 Y19.6599
G1 X10.8051 Y19.6683
G1 X10.7451 Y19.7129
G1 X10.7338 Y19.7208
G1 X10.7222 Y19.7282
G1 X10.6581 Y19.7666
G1 X10.6461 Y19.7734
G1 X10.6338 Y19.7796
G1 X10.5662 Y19.8115
G1 X10.5537 Y19.8171
G1 X10.5409 Y19.8220
G1 X10.4704 Y19.8472
G1 X10.4574 Y19.8515
G1 X10.4441 Y19.8552
G1 X10.3716 Y19.8734
G1 X10.3582 Y19.8764
G1 X10.3447 Y19.8787
G1 X10.2707 Y19.8897
G1 X10.2571 Y19.8914
G1 X10.2433 Y19.8924
G1 X10.1687 Y19.8961
G1 X10.1549 Y19.8964
G1 X10.1412 Y19.8961
G1 X10.0665 Y19.8924
G1 X10.0528 Y19.8914
G1 X10.0391 Y19.8897
G1 X9.9652 Y19.8787
G1 X9.9516 Y19.8764
G1 X9.9382 Y19.8734
G1 X9.8657 Y19.8552
G1 X9.8524 Y19.8515
G1 X9.8394 Y19.8472
G1 X9.7690 Y19.8220
G1 X9.7562 Y19.8171
G1 X9.7436 Y19.8115
G1 X9.6760 Y19.7796
G1 X9.6637 Y19.7734
G1 X9.6518 Y19.7666
G1 X9.5876 Y19.7282
G1 X9.5760 Y19.7208
G1 X9.5648 Y19.7129
G1 X9.5047 Y19.6683
G1 X9.4939 Y19.6599
G1 X9.4835 Y19.6509
G1 X9.4281 Y19.6007
G1 X9.4181 Y19.5912
G1 X9.4086 Y19.5813
G1 X9.3584 Y19.5259
G1 X9.3494 Y19.5155
G1 X9.3410 Y19.5046
G1 X9.2964 Y19.4446
G1 X9.2885 Y19.4333
G1 X9.2812 Y19.4217
G1 X9.2427 Y19.3576
G1 X9.2360 Y19.3456
G1 X9.2298 Y19.3333
G1 X9.1978 Y19.2657
G1 X9.1922 Y19.2532
G1 X9.1873 Y19.2404
G1 X9.1621 Y19.1699
G1 X9.1578 Y19.1569
G1 X9.1541 Y19.1436
G1 X9.1360 Y19.0711
G1 X9.1329 Y19.0577
G1 X9.1306 Y19.0442
G1 X9.1196 Y18.9702
G1 X9.1179 Y18.9566
G1 X9.1169 Y18.9428
G1 X9.1133 Y18.8682
G0 Z2.0000
G0 X9.2930 Y18.8593
F500
G1 Z0.0000 F500
F300
G1 X9.2930 Y18.8495
G1 X9.2971 Y18.7699
G1 X9.3095 Y18.6863
G1 X9.3300 Y18.6042
G1 X9.3585 Y18.5245
G1 X9.3947 Y18.4481
G1 X9.4382 Y18.3755
G1 X9.4886 Y18.3076
G1 X9.5454 Y18.2449
G1 X9.6081 Y18.1881
G1 X9.6760 Y18.1377
G1 X9.7486 Y18.0942
G1 X9.8250 Y18.0580
G1 X9.9047 Y18.0295
G1 X9.9868 Y18.0090
G1 X10.0704 Y17.9966
G1 X10.1549 Y17.9924
G1 X10.2394 Y17.9966
G1 X10.3231 Y18.0090
G1 X10.4051 Y18.0295
G1 X10.4848 Y18.0580
G1 X10.5613 Y18.0942
G1 X10.6338 Y18.1377
G1 X10.7018 Y18.1881
G1 X10.7644 Y18.2449
G1 X10.8213 Y18.3076
G1 X10.8716 Y18.3755
G1 X10.9151 Y18.4481
G1 X10.9513 Y18.5245
G1 X10.9798 Y18.6042
G1 X11.0004 Y18.6863
G1 X11.0128 Y18.7699
G1 X11.0169 Y18.8544
G1 X11.0128 Y18.9389
G1 X11.0004 Y19.0226
G1 X10.9798 Y19.1046
G1 X10.9513 Y19.1843
G1 X10.9151 Y19.2608
G1 X10.8716 Y19.3333
G1 X10.8213 Y19.4013
G1 X10.7644 Y19.4639
G1 X10.7018 Y19.5208
G1 X10.6338 Y19.5711
G1 X10.5613 Y19.6146
G1 X10.4848 Y19.6508
G1 X10.4051 Y19.6793
G1 X10.3231 Y19.6999
G1 X10.2394 Y19.7123
G1 X10.1549 Y19.7164
G1 X10.0704 Y19.7123
G1 X9.9868 Y19.6999
G1 X9.9047 Y19.6793
G1 X9.8250 Y19.6508
G1 X9.7486 Y19.6146
G1 X9.6760 Y19.5711
G1 X9.6081 Y19.5208
G1 X9.5454 Y19.4639
G1 X9.4886 Y19.4013
G1 X9.4382 Y19.3333
G1 X9.3947 Y19.2608
G1 X9.3585 Y19.1843
G1 X9.3300 Y19.1046
G1 X9.3095 Y19.0226
G1 X9.2971 Y18.9389
G1 X9.2930 Y18.8593
G0 Z2.0000
G0 X10.2877 Y20.1798
F500
G1 Z0.0000 F500
F300
G1 X10.2747 Y20.1783
G1 X10.2522 Y20.1766
G1 X10.1775 Y20.1730
G1 X10.1549 Y20.1724
G1 X10.1436 Y20.1726
G1 X10.0577 Y20.1766
G1 X10.0351 Y20.1783
G1 X10.0127 Y20.1811
G1 X9.9574 Y20.1893
G1 X9.9590 Y20.1666
G1 X9.9596 Y20.1442
G1 X9.9595 Y20.0934
G1 X9.9584 Y20.0710
G1 X9.9574 Y20.0596
G1 X10.0239 Y20.0693
G1 X10.0464 Y20.0715
G1 X10.1323 Y20.0759
G1 X10.1549 Y20.0764
G1 X10.1662 Y20.0763
G1 X10.2522 Y20.0722
G1 X10.2634 Y20.0715
G1 X10.2859 Y20.0693
G1 X10.3822 Y20.0550
G1 X10.4044 Y20.0506
G1 X10.4210 Y20.0466
G1 X10.2877 Y20.1798
G0 Z2.0000
G0 X10.3510 Y20.3711
F500
G1 Z0.0000 F500
F300
G1 X11.2611 Y19.4610
G1 X11.2611 Y11.4661
G1 X11.2191 Y11.4766
G1 X11.1989 Y11.4809
G1 X11.0756 Y11.4993
G1 X11.0552 Y11.5015
G1 X10.9307 Y11.5077
G1 X10.9169 Y11.5081
G1 X10.9032 Y11.5077
G1 X10.7787 Y11.5015
G1 X10.7582 Y11.4993
G1 X10.6417 Y11.4820
G1 X10.6282 Y11.4796
G1 X10.6147 Y11.4766
G1 X10.5005 Y11.4480
G1 X10.4873 Y11.4443
G1 X10.4742 Y11.4400
G1 X10.3569 Y11.3979
G1 X10.3379 Y11.3898
G1 X10.2315 Y11.3395
G1 X10.2192 Y11.3333
G1 X10.2072 Y11.3265
G1 X10.1062 Y11.2660
G1 X10.0946 Y11.2586
G1 X10.0834 Y11.2507
G1 X9.9888 Y11.1805
G1 X9.9779 Y11.1721
G1 X9.9675 Y11.1631
G1 X9.8802 Y11.0840
G1 X9.8703 Y11.0745
G1 X9.8608 Y11.0646
G1 X9.7817 Y10.9773
G1 X9.7727 Y10.9669
G1 X9.7643 Y10.9561
G1 X9.6901 Y10.8559
G1 X9.6789 Y10.8386
G1 X9.6183 Y10.7376
G1 X9.6115 Y10.7257
G1 X9.6054 Y10.7134
G1 X9.5550 Y10.6069
G1 X9.5494 Y10.5943
G1 X9.5445 Y10.5815
G1 X9.5048 Y10.4706
G1 X9.5005 Y10.4576
G1 X9.4968 Y10.4443
G1 X9.4682 Y10.3301
G1 X9.4652 Y10.3167
G1 X9.4629 Y10.3031
G1 X9.4456 Y10.1866
G1 X9.4439 Y10.1730
G1 X9.4429 Y10.1593
G1 X9.4371 Y10.0417
G1 X9.4368 Y10.0279
G1 X9.4371 Y10.0142
G1 X9.4429 Y9.8965
G1 X9.4439 Y9.8828
G1 X9.4456 Y9.8692
G1 X9.4629 Y9.7527
G1 X9.4652 Y9.7392
G1 X9.4682 Y9.7257
G1 X9.4968 Y9.6115
G1 X9.5005 Y9.5983
G1 X9.5048 Y9.5852
G1 X9.5445 Y9.4743
G1 X9.5494 Y9.4615
G1 X9.5550 Y9.4489
G1 X9.6054 Y9.3425
G1 X9.6115 Y9.3302
G1 X9.6183 Y9.3182
G1 X9.6789 Y9.2172
G1 X9.6901 Y9.1999
G1 X9.7643 Y9.0998
G1 X9.7727 Y9.0889
G1 X9.7817 Y9.0785
G1 X9.8608 Y8.9912
G1 X9.8703 Y8.9813
G1 X9.8802 Y8.9718
G1 X9.9675 Y8.8927
G1 X9.9779 Y8.8837
G1 X9.9888 Y8.8753
G1 X10.0834 Y8.8051
G1 X10.0946 Y8.7972
G1 X10.1062 Y8.7899
G1 X10.2072 Y8.7293
G1 X10.2192 Y8.7225
G1 X10.2315 Y8.7164
G1 X10.3379 Y8.6660
G1 X10.3505 Y8.6604
G1 X10.3633 Y8.6555
G1 X10.4742 Y8.6158
G1 X10.4873 Y8.6115
G1 X10.5005 Y8.6078
G1 X10.6147 Y8.5792
G1 X10.6282 Y8.5762
G1 X10.6417 Y8.5739
G1 X10.7582 Y8.5566
G1 X10.7787 Y8.5543
G1 X10.9032 Y8.5481
G1 X10.9169 Y8.5478
G1 X10.9307 Y8.5481
G1 X11.0483 Y8.5539
G1 X11.0620 Y8.5549
G1 X11.0756 Y8.5566
G1 X11.1921 Y8.5739
G1 X11.2057 Y8.5762
G1 X11.2191 Y8.5792
G1 X11.3333 Y8.6078
G1 X11.3466 Y8.6115
G1 X11.3596 Y8.6158
G1 X11.4770 Y8.6579
G1 X11.4959 Y8.6660
G1 X11.6024 Y8.7164
G1 X11.6147 Y8.7225
G1 X11.6266 Y8.7293
G1 X11.7276 Y8.7899
G1 X11.7449 Y8.8011
G1 X11.8451 Y8.8753
G1 X11.8612 Y8.8882
G1 X11.9586 Y8.9765
G1 X11.9730 Y8.9912
G1 X12.0122 Y9.0345
G1 X14.1044 Y6.9425
G1 X14.1316 Y6.9177
G1 X14.1420 Y6.9087
G1 X14.1769 Y6.8825
G1 X14.1939 Y6.8708
G1 X14.2313 Y6.8484
G1 X14.2496 Y6.8389
G1 X14.2892 Y6.8205
G1 X14.3020 Y6.8155
G1 X14.3367 Y6.8032
G1 X14.3565 Y6.7975
G1 X14.3990 Y6.7872
G1 X14.4421 Y6.7805
G1 X14.4626 Y6.7782
G1 X14.4993 Y6.7763
G1 X14.5131 Y6.7760
G1 X18.5623 Y6.7760
G1 X18.5718 Y6.7608
G1 X18.5797 Y6.7496
G1 X18.6265 Y6.6865
G1 X18.6349 Y6.6757
G1 X18.6439 Y6.6653
G1 X18.6966 Y6.6071
G1 X18.7061 Y6.5972
G1 X18.7161 Y6.5877
G1 X18.7742 Y6.5350
G1 X18.7847 Y6.5260
G1 X18.7955 Y6.5175
G1 X18.8586 Y6.4708
G1 X18.8698 Y6.4628
G1 X18.8814 Y6.4555
G1 X18.9487 Y6.4151
G1 X18.9607 Y6.4084
G1 X18.9730 Y6.4022
G1 X19.0440 Y6.3686
G1 X19.0565 Y6.3630
G1 X19.0693 Y6.3581
G1 X19.1498 Y6.3294
G1 X19.1696 Y6.3237
G1 X19.2457 Y6.3046
G1 X19.2591 Y6.3016
G1 X19.2727 Y6.2992
G1 X19.3504 Y6.2877
G1 X19.3640 Y6.2860
G1 X19.3777 Y6.2850
G1 X19.4561 Y6.2812
G1 X19.4699 Y6.2808
G1 X19.4836 Y6.2812
G1 X19.5620 Y6.2850
G1 X19.5757 Y6.2860
G1 X19.5894 Y6.2877
G1 X19.6670 Y6.2992
G1 X19.6806 Y6.3016
G1 X19.6940 Y6.3046
G1 X19.7701 Y6.3237
G1 X19.7834 Y6.3273
G1 X19.7964 Y6.3316
G1 X19.8768 Y6.3605
G1 X19.8958 Y6.3686
G1 X19.9667 Y6.4022
G1 X19.9790 Y6.4084
G1 X19.9910 Y6.4151
G1 X20.0583 Y6.4555
G1 X20.0756 Y6.4667
G1 X20.1442 Y6.5175
G1 X20.1551 Y6.5260
G1 X20.1655 Y6.5350
G1 X20.2237 Y6.5877
G1 X20.2336 Y6.5972
G1 X20.2431 Y6.6071
G1 X20.2958 Y6.6653
G1 X20.3048 Y6.6757
G1 X20.3132 Y6.6865
G1 X20.3600 Y6.7496
G1 X20.3679 Y6.7608
G1 X20.3753 Y6.7725
G1 X20.4156 Y6.8398
G1 X20.4224 Y6.8518
G1 X20.4286 Y6.8640
G1 X20.4622 Y6.9350
G1 X20.4677 Y6.9476
G1 X20.4727 Y6.9604
G1 X20.4991 Y7.0343
G1 X20.5034 Y7.0474
G1 X20.5071 Y7.0606
G1 X20.5262 Y7.1368
G1 X20.5292 Y7.1502
G1 X20.5316 Y7.1637
G1 X20.5431 Y7.2414
G1 X20.5448 Y7.2550
G1 X20.5458 Y7.2688
G1 X20.5496 Y7.3472
G1 X20.5500 Y7.3609
G1 X20.5496 Y7.3747
G1 X20.5458 Y7.4531
G1 X20.5448 Y7.4668
G1 X20.5431 Y7.4804
G1 X20.5316 Y7.5581
G1 X20.5292 Y7.5716
G1 X20.5262 Y7.5850
G1 X20.5071 Y7.6612
G1 X20.5034 Y7.6745
G1 X20.4991 Y7.6875
G1 X20.4727 Y7.7614
G1 X20.4677 Y7.7743
G1 X20.4622 Y7.7868
G1 X20.4286 Y7.8578
G1 X20.4224 Y7.8701
G1 X20.4156 Y7.8820
G1 X20.3753 Y7.9494
G1 X20.3679 Y7.9610
G1 X20.3600 Y7.9722
G1 X20.3132 Y8.0353
G1 X20.3048 Y8.0461
G1 X20.2958 Y8.0565
G1 X20.2431 Y8.1147
G1 X20.2336 Y8.1247
G1 X20.2237 Y8.1341
G1 X20.1655 Y8.1869
G1 X20.1551 Y8.1958
G1 X20.1442 Y8.2043
G1 X20.0812 Y8.2511
G1 X20.0699 Y8.2590
G1 X20.0583 Y8.2663
G1 X19.9910 Y8.3067
G1 X19.9729 Y8.3166
G1 X19.8958 Y8.3532
G1 X19.8832 Y8.3588
G1 X19.8704 Y8.3637
G1 X19.7964 Y8.3902
G1 X19.7834 Y8.3945
G1 X19.7701 Y8.3982
G1 X19.6940 Y8.4173
G1 X19.6806 Y8.4203
G1 X19.6670 Y8.4226
G1 X19.5894 Y8.4341
G1 X19.5757 Y8.4358
G1 X19.5620 Y8.4368
G1 X19.4836 Y8.4407
G1 X19.4699 Y8.4410
G1 X19.4561 Y8.4407
G1 X19.3777 Y8.4368
G1 X19.3640 Y8.4358
G1 X19.3504 Y8.4341
G1 X19.2727 Y8.4226
G1 X19.2591 Y8.4203
G1 X19.2457 Y8.4173
G1 X19.1696 Y8.3982
G1 X19.1563 Y8.3945
G1 X19.1433 Y8.3902
G1 X19.0693 Y8.3637
G1 X19.0565 Y8.3588
G1 X19.0440 Y8.3532
G1 X18.9668 Y8.3166
G1 X18.9487 Y8.3067
G1 X18.8814 Y8.2663
G1 X18.8698 Y8.2590
G1 X18.8586 Y8.2511
G1 X18.7955 Y8.2043
G1 X18.7847 Y8.1958
G1 X18.7742 Y8.1869
G1 X18.7110 Y8.1295
G1 X18.6966 Y8.1147
G1 X18.6439 Y8.0565
G1 X18.6306 Y8.0408
G1 X18.5797 Y7.9722
G1 X18.5718 Y7.9610
G1 X18.5630 Y7.9471
G1 X14.7553 Y7.9459
G1 X12.4310 Y10.2702
G1 X12.4310 Y19.7033
G1 X12.4292 Y19.7469
G1 X12.4282 Y19.7606
G1 X12.4221 Y19.8039
G1 X12.4198 Y19.8174
G1 X12.4168 Y19.8308
G1 X12.4078 Y19.8665
G1 X12.4015 Y19.8861
G1 X12.3865 Y19.9271
G1 X12.3809 Y19.9397
G1 X12.3651 Y19.9729
G1 X12.3552 Y19.9910
G1 X12.3324 Y20.0283
G1 X12.3245 Y20.0395
G1 X12.3025 Y20.0690
G1 X12.2893 Y20.0848
G1 X12.2597 Y20.1169
G1 X11.1782 Y21.1984
G1 X11.1902 Y21.2786
G1 X11.1919 Y21.2923
G1 X11.1929 Y21.3060
G1 X11.1966 Y21.3807
G1 X11.1969 Y21.3944
G1 X11.1966 Y21.4082
G1 X11.1929 Y21.4828
G1 X11.1919 Y21.4966
G1 X11.1902 Y21.5102
G1 X11.1792 Y21.5842
G1 X11.1769 Y21.5977
G1 X11.1739 Y21.6111
G1 X11.1557 Y21.6836
G1 X11.1520 Y21.6969
G1 X11.1477 Y21.7099
G1 X11.1225 Y21.7804
G1 X11.1176 Y21.7932
G1 X11.1120 Y21.8057
G1 X11.0801 Y21.8733
G1 X11.0739 Y21.8856
G1 X11.0671 Y21.8976
G1 X11.0287 Y21.9617
G1 X11.0213 Y21.9733
G1 X11.0134 Y21.9846
G1 X10.9688 Y22.0446
G1 X10.9604 Y22.0555
G1 X10.9514 Y22.0659
G1 X10.8965 Y22.1263
G1 X10.8818 Y22.1407
G1 X10.8264 Y22.1909
G1 X10.8160 Y22.1999
G1 X10.8051 Y22.2083
G1 X10.7451 Y22.2529
G1 X10.7338 Y22.2608
G1 X10.7222 Y22.2682
G1 X10.6581 Y22.3066
G1 X10.6461 Y22.3134
G1 X10.6338 Y22.3196
G1 X10.5662 Y22.3515
G1 X10.5537 Y22.3571
G1 X10.5409 Y22.3620
G1 X10.4704 Y22.3872
G1 X10.4574 Y22.3915
G1 X10.4441 Y22.3952
G1 X10.3716 Y22.4134
G1 X10.3582 Y22.4164
G1 X10.3447 Y22.4187
G1 X10.2707 Y22.4297
G1 X10.2571 Y22.4314
G1 X10.2433 Y22.4324
G1 X10.1687 Y22.4361
G1 X10.1549 Y22.4364
G1 X10.1412 Y22.4361
G1 X10.0665 Y22.4324
G1 X10.0528 Y22.4314
G1 X10.0391 Y22.4297
G1 X9.9652 Y22.4187
G1 X9.9516 Y22.4164
G1 X9.9382 Y22.4134
G1 X9.8657 Y22.3952
G1 X9.8524 Y22.3915
G1 X9.8394 Y22.3872
G1 X9.7690 Y22.3620
G1 X9.7562 Y22.3571
G1 X9.7436 Y22.3515
G1 X9.6760 Y22.3196
G1 X9.6637 Y22.3134
G1 X9.6518 Y22.3066
G1 X9.5876 Y22.2682
G1 X9.5760 Y22.2608
G1 X9.5648 Y22.2529
G1 X9.5047 Y22.2083
G1 X9.4939 Y22.1999
G1 X9.4835 Y22.1909
G1 X9.4281 Y22.1407
G1 X9.4181 Y22.1312
G1 X9.4086 Y22.1213
G1 X9.3584 Y22.0659
G1 X9.3494 Y22.0555
G1 X9.3410 Y22.0446
G1 X9.2964 Y21.9846
G1 X9.2885 Y21.9733
G1 X9.2812 Y21.9617
G1 X9.2427 Y21.8976
G1 X9.2360 Y21.8856
G1 X9.2298 Y21.8733
G1 X9.1978 Y21.8057
G1 X9.1922 Y21.7932
G1 X9.1873 Y21.7804
G1 X9.1621 Y21.7099
G1 X9.1578 Y21.6969
G1 X9.1541 Y21.6836
G1 X9.1360 Y21.6111
G1 X9.1329 Y21.5977
G1 X9.1306 Y21.5842
G1 X9.1196 Y21.5102
G1 X9.1179 Y21.4966
G1 X9.1169 Y21.4828
G1 X9.1133 Y21.4082
G1 X9.1129 Y21.3944
G1 X9.1133 Y21.3807
G1 X9.1169 Y21.3060
G1 X9.1179 Y21.2923
G1 X9.1196 Y21.2786
G1 X9.1306 Y21.2047
G1 X9.1329 Y21.1911
G1 X9.1360 Y21.1777
G1 X9.1541 Y21.1052
G1 X9.1578 Y21.0919
G1 X9.1621 Y21.0789
G1 X9.1873 Y21.0085
G1 X9.1922 Y20.9957
G1 X9.1978 Y20.9831
G1 X9.2298 Y20.9155
G1 X9.2360 Y20.9032
G1 X9.2427 Y20.8913
G1 X9.2812 Y20.8271
G1 X9.2885 Y20.8155
G1 X9.2964 Y20.8043
G1 X9.3410 Y20.7442
G1 X9.3494 Y20.7334
G1 X9.3584 Y20.7230
G1 X9.4086 Y20.6676
G1 X9.4181 Y20.6576
G1 X9.4281 Y20.6481
G1 X9.4835 Y20.5979
G1 X9.4939 Y20.5889
G1 X9.5047 Y20.5805
G1 X9.5648 Y20.5359
G1 X9.5760 Y20.5280
G1 X9.5876 Y20.5207
G1 X9.6518 Y20.4822
G1 X9.6637 Y20.4755
G1 X9.6760 Y20.4693
G1 X9.7436 Y20.4373
G1 X9.7562 Y20.4317
G1 X9.7690 Y20.4268
G1 X9.8394 Y20.4016
G1 X9.8524 Y20.3973
G1 X9.8657 Y20.3936
G1 X9.9382 Y20.3755
G1 X9.9516 Y20.3724
G1 X9.9652 Y20.3701
G1 X10.0391 Y20.3591
G1 X10.0528 Y20.3574
G1 X10.0665 Y20.3564
G1 X10.1412 Y20.3528
G1 X10.1549 Y20.3524
G1 X10.1687 Y20.3528
G1 X10.2433 Y20.3564
G1 X10.2571 Y20.3574
G1 X10.2707 Y20.3591
G1 X10.3510 Y20.3711
G0 Z2.0000
G0 X10.4066 Y20.5700
F500
G1 Z0.0000 F500
F300
G1 X11.4411 Y19.5355
G1 X11.4411 Y11.2166
G1 X11.4122 Y11.2300
G1 X11.2990 Y11.2705
G1 X11.2920 Y11.2728
G1 X11.1706 Y11.3031
G1 X11.0444 Y11.3218
G1 X10.9169 Y11.3281
G1 X10.7944 Y11.3222
G1 X10.7846 Y11.3212
G1 X10.6681 Y11.3039
G1 X10.6585 Y11.3020
G1 X10.5395 Y11.2721
G1 X10.4194 Y11.2291
G1 X10.3040 Y11.1745
G1 X10.1987 Y11.1116
G1 X10.1906 Y11.1061
G1 X10.0960 Y11.0360
G1 X10.0884 Y11.0297
G1 X9.9976 Y10.9473
G1 X9.9119 Y10.8527
G1 X9.8359 Y10.7502
G1 X9.7727 Y10.6451
G1 X9.7681 Y10.6364
G1 X9.7157 Y10.5255
G1 X9.6728 Y10.4053
G1 X9.6428 Y10.2864
G1 X9.6409 Y10.2767
G1 X9.6236 Y10.1602
G1 X9.6227 Y10.1505
G1 X9.6168 Y10.0279
G1 X9.6230 Y9.9005
G1 X9.6418 Y9.7743
G1 X9.6714 Y9.6552
G1 X9.6743 Y9.6458
G1 X9.7140 Y9.5350
G1 X9.7177 Y9.5259
G1 X9.7703 Y9.4150
G1 X9.8359 Y9.3056
G1 X9.9089 Y9.2070
G1 X9.9151 Y9.1994
G1 X9.9976 Y9.1086
G1 X10.0884 Y9.0261
G1 X10.0960 Y9.0199
G1 X10.1946 Y8.9469
G1 X10.3040 Y8.8813
G1 X10.4149 Y8.8287
G1 X10.4240 Y8.8250
G1 X10.5395 Y8.7838
G1 X10.6585 Y8.7538
G1 X10.6681 Y8.7519
G1 X10.7895 Y8.7340
G1 X10.9169 Y8.7278
G1 X11.0444 Y8.7340
G1 X11.1657 Y8.7519
G1 X11.1754 Y8.7538
G1 X11.2943 Y8.7838
G1 X11.4099 Y8.8250
G1 X11.4189 Y8.8287
G1 X11.5298 Y8.8813
G1 X11.6392 Y8.9469
G1 X11.7379 Y9.0199
G1 X11.7454 Y9.0261
G1 X11.8363 Y9.1086
G1 X11.9187 Y9.1994
G1 X11.9250 Y9.2070
G1 X11.9970 Y9.3043
G1 X14.2285 Y7.0729
G1 X14.2525 Y7.0511
G1 X14.2600 Y7.0449
G1 X14.2881 Y7.0242
G1 X14.3179 Y7.0062
G1 X14.3266 Y7.0016
G1 X14.3581 Y6.9868
G1 X14.3979 Y6.9727
G1 X14.4341 Y6.9637
G1 X14.4685 Y6.9585
G1 X14.4783 Y6.9576
G1 X14.5131 Y6.9560
G1 X18.6668 Y6.9560
G1 X18.6772 Y6.9345
G1 X18.7201 Y6.8629
G1 X18.7243 Y6.8568
G1 X18.7725 Y6.7918
G1 X18.7773 Y6.7862
G1 X18.8334 Y6.7245
G1 X18.8988 Y6.6651
G1 X18.9698 Y6.6125
G1 X19.0456 Y6.5671
G1 X19.1254 Y6.5293
G1 X19.2039 Y6.5011
G1 X19.2133 Y6.4983
G1 X19.2943 Y6.4781
G1 X19.3768 Y6.4658
G1 X19.3865 Y6.4648
G1 X19.4650 Y6.4609
G1 X19.4748 Y6.4609
G1 X19.5581 Y6.4652
G1 X19.6406 Y6.4773
G1 X19.6502 Y6.4792
G1 X19.7311 Y6.4996
G1 X19.8143 Y6.5293
G1 X19.8942 Y6.5671
G1 X19.9699 Y6.6125
G1 X20.0370 Y6.6621
G1 X20.0446 Y6.6683
G1 X20.1063 Y6.7245
G1 X20.1624 Y6.7862
G1 X20.1687 Y6.7938
G1 X20.2183 Y6.8609
G1 X20.2613 Y6.9323
G1 X20.2659 Y6.9410
G1 X20.3014 Y7.0165
G1 X20.3297 Y7.0950
G1 X20.3325 Y7.1044
G1 X20.3527 Y7.1853
G1 X20.3656 Y7.2727
G1 X20.3698 Y7.3560
G1 X20.3698 Y7.3658
G1 X20.3656 Y7.4491
G1 X20.3535 Y7.5317
G1 X20.3516 Y7.5413
G1 X20.3312 Y7.6222
G1 X20.3032 Y7.7008
G1 X20.2995 Y7.7099
G1 X20.2637 Y7.7852
G1 X20.2209 Y7.8568
G1 X20.2154 Y7.8650
G1 X20.1656 Y7.9319
G1 X20.1097 Y7.9938
G1 X20.1028 Y8.0008
G1 X20.0409 Y8.0567
G1 X19.9739 Y8.1065
G1 X19.9658 Y8.1119
G1 X19.8942 Y8.1547
G1 X19.8188 Y8.1905
G1 X19.8097 Y8.1943
G1 X19.7311 Y8.2223
G1 X19.6455 Y8.2437
G1 X19.5581 Y8.2567
G1 X19.4699 Y8.2610
G1 X19.3816 Y8.2567
G1 X19.2943 Y8.2437
G1 X19.2086 Y8.2223
G1 X19.1300 Y8.1943
G1 X19.1209 Y8.1905
G1 X19.0456 Y8.1547
G1 X18.9698 Y8.1093
G1 X18.8988 Y8.0567
G1 X18.8369 Y8.0008
G1 X18.8300 Y7.9938
G1 X18.7741 Y7.9319
G1 X18.7243 Y7.8650
G1 X18.7188 Y7.8568
G1 X18.6772 Y7.7874
G1 X18.6668 Y7.7659
G1 X14.6808 Y7.7659
G1 X12.2510 Y10.1957
G1 X12.2510 Y19.7033
G1 X12.2491 Y19.7430
G1 X12.2432 Y19.7823
G1 X12.2336 Y19.8208
G1 X12.2220 Y19.8537
G1 X12.2182 Y19.8627
G1 X12.2032 Y19.8942
G1 X12.1854 Y19.9241
G1 X12.1800 Y19.9323
G1 X12.1591 Y19.9602
G1 X12.1341 Y19.9879
G1 X10.9793 Y21.1427
G1 X10.9993 Y21.2215
G1 X11.0012 Y21.2311
G1 X11.0128 Y21.3099
G1 X11.0168 Y21.3895
G1 X11.0168 Y21.3993
G1 X11.0128 Y21.4789
G1 X11.0012 Y21.5577
G1 X10.9993 Y21.5674
G1 X10.9798 Y21.6446
G1 X10.9531 Y21.7197
G1 X10.9493 Y21.7288
G1 X10.9151 Y21.8008
G1 X10.8743 Y21.8692
G1 X10.8688 Y21.8773
G1 X10.8213 Y21.9413
G1 X10.7662 Y22.0022
G1 X10.7055 Y22.0575
G1 X10.6979 Y22.0638
G1 X10.6338 Y22.1111
G1 X10.5655 Y22.1522
G1 X10.5569 Y22.1568
G1 X10.4848 Y22.1908
G1 X10.4098 Y22.2178
G1 X10.4004 Y22.2206
G1 X10.3231 Y22.2399
G1 X10.2443 Y22.2517
G1 X10.2345 Y22.2526
G1 X10.1549 Y22.2564
G1 X10.0753 Y22.2526
G1 X10.0656 Y22.2517
G1 X9.9868 Y22.2399
G1 X9.9047 Y22.2193
G1 X9.8250 Y22.1908
G1 X9.7486 Y22.1546
G1 X9.6760 Y22.1111
G1 X9.6081 Y22.0608
G1 X9.5454 Y22.0039
G1 X9.4886 Y21.9413
G1 X9.4382 Y21.8733
G1 X9.3947 Y21.8008
G1 X9.3585 Y21.7243
G1 X9.3300 Y21.6446
G1 X9.3095 Y21.5626
G1 X9.2971 Y21.4789
G1 X9.2929 Y21.3944
G1 X9.2971 Y21.3099
G1 X9.3095 Y21.2263
G1 X9.3300 Y21.1442
G1 X9.3585 Y21.0645
G1 X9.3947 Y20.9881
G1 X9.4382 Y20.9155
G1 X9.4886 Y20.8476
G1 X9.5454 Y20.7849
G1 X9.6081 Y20.7281
G1 X9.6760 Y20.6777
G1 X9.7486 Y20.6342
G1 X9.8250 Y20.5980
G1 X9.9047 Y20.5695
G1 X9.9868 Y20.5490
G1 X10.0704 Y20.5366
G1 X10.1549 Y20.5324
G1 X10.2394 Y20.5366
G1 X10.3231 Y20.5490
G1 X10.4066 Y20.5700
G0 Z2.0000
G0 X9.9574 Y22.5996
F500
G1 Z0.0000 F500
F300
G1 X10.0239 Y22.6093
G1 X10.0464 Y22.6115
G1 X10.1323 Y22.6159
G1 X10.1549 Y22.6164
G1 X10.1775 Y22.6159
G1 X10.2634 Y22.6115
G1 X10.2859 Y22.6093
G1 X10.3525 Y22.5996
G1 X10.3515 Y22.6110
G1 X10.3504 Y22.6334
G1 X10.3502 Y22.6842
G1 X10.3508 Y22.7067
G1 X10.3525 Y22.7293
G1 X10.2859 Y22.7195
G1 X10.2634 Y22.7173
G1 X10.1775 Y22.7130
G1 X10.1549 Y22.7124
G1 X10.1323 Y22.7130
G1 X10.0464 Y22.7173
G1 X10.0239 Y22.7195
G1 X9.9574 Y22.7293
G1 X9.9590 Y22.7067
G1 X9.9596 Y22.6842
G1 X9.9595 Y22.6334
G1 X9.9584 Y22.6110
G1 X9.9574 Y22.5996
G0 Z2.0000
G0 X9.2930 Y23.9393
F500
G1 Z0.0000 F500
F300
G1 X9.2930 Y23.9295
G1 X9.2971 Y23.8499
G1 X9.3095 Y23.7663
G1 X9.3300 Y23.6842
G1 X9.3585 Y23.6045
G1 X9.3947 Y23.5281
G1 X9.4382 Y23.4555
G1 X9.4886 Y23.3876
G1 X9.5454 Y23.3249
G1 X9.6081 Y23.2681
G1 X9.6760 Y23.2177
G1 X9.7486 Y23.1742
G1 X9.8250 Y23.1380
G1 X9.9047 Y23.1095
G1 X9.9868 Y23.0890
G1 X10.0704 Y23.0766
G1 X10.1549 Y23.0724
G1 X10.2394 Y23.0766
G1 X10.3231 Y23.0890
G1 X10.4051 Y23.1095
G1 X10.4848 Y23.1380
G1 X10.5613 Y23.1742
G1 X10.6338 Y23.2177
G1 X10.7018 Y23.2681
G1 X10.7644 Y23.3249
G1 X10.8213 Y23.3876
G1 X10.8716 Y23.4555
G1 X10.9151 Y23.5281
G1 X10.9513 Y23.6045
G1 X10.9798 Y23.6842
G1 X11.0004 Y23.7663
G1 X11.0128 Y23.8499
G1 X11.0169 Y23.9344
G1 X11.0128 Y24.0189
G1 X11.0004 Y24.1026
G1 X10.9798 Y24.1846
G1 X10.9513 Y24.2643
G1 X10.9151 Y24.3408
G1 X10.8716 Y24.4133
G1 X10.8213 Y24.4813
G1 X10.7644 Y24.5439
G1 X10.7018 Y24.6008
G1 X10.6338 Y24.6511
G1 X10.5613 Y24.6946
G1 X10.4848 Y24.7308
G1 X10.4051 Y24.7593
G1 X10.3231 Y24.7799
G1 X10.2394 Y24.7923
G1 X10.1549 Y24.7964
G1 X10.0704 Y24.7923
G1 X9.9868 Y24.7799
G1 X9.9047 Y24.7593
G1 X9.8250 Y24.7308
G1 X9.7486 Y24.6946
G1 X9.6760 Y24.6511
G1 X9.6081 Y24.6008
G1 X9.5454 Y24.5439
G1 X9.4886 Y24.4813
G1 X9.4382 Y24.4133
G1 X9.3947 Y24.3408
G1 X9.3585 Y24.2643
G1 X9.3300 Y24.1846
G1 X9.3095 Y24.1026
G1 X9.2971 Y24.0189
G1 X9.2930 Y23.9393
G0 Z2.0000
G0 X9.1133 Y23.9482
F500
G1 Z0.0000 F500
F300
G1 X9.1129 Y23.9344
G1 X9.1133 Y23.9207
G1 X9.1169 Y23.8460
G1 X9.1179 Y23.8323
G1 X9.1196 Y23.8186
G1 X9.1306 Y23.7447
G1 X9.1329 Y23.7311
G1 X9.1360 Y23.7177
G1 X9.1541 Y23.6452
G1 X9.1578 Y23.6319
G1 X9.1621 Y23.6189
G1 X9.1873 Y23.5485
G1 X9.1922 Y23.5357
G1 X9.1978 Y23.5231
G1 X9.2298 Y23.4555
G1 X9.2360 Y23.4432
G1 X9.2427 Y23.4313
G1 X9.2812 Y23.3671
G1 X9.2885 Y23.3555
G1 X9.2964 Y23.3443
G1 X9.3410 Y23.2842
G1 X9.3494 Y23.2734
G1 X9.3584 Y23.2630
G1 X9.4086 Y23.2076
G1 X9.4181 Y23.1976
G1 X9.4281 Y23.1881
G1 X9.4835 Y23.1379
G1 X9.4939 Y23.1289
G1 X9.5047 Y23.1205
G1 X9.5648 Y23.0759
G1 X9.5760 Y23.0680
G1 X9.5876 Y23.0607
G1 X9.6518 Y23.0222
G1 X9.6637 Y23.0155
G1 X9.6760 Y23.0093
G1 X9.7436 Y22.9773
G1 X9.7562 Y22.9717
G1 X9.7690 Y22.9668
G1 X9.8394 Y22.9416
G1 X9.8524 Y22.9373
G1 X9.8657 Y22.9336
G1 X9.9382 Y22.9155
G1 X9.9516 Y22.9124
G1 X9.9652 Y22.9101
G1 X10.0391 Y22.8991
G1 X10.0528 Y22.8974
G1 X10.0665 Y22.8964
G1 X10.1412 Y22.8928
G1 X10.1549 Y22.8924
G1 X10.1687 Y22.8928
G1 X10.2433 Y22.8964
G1 X10.2571 Y22.8974
G1 X10.2707 Y22.8991
G1 X10.3447 Y22.9101
G1 X10.3582 Y22.9124
G1 X10.3716 Y22.9155
G1 X10.4441 Y22.9336
G1 X10.4574 Y22.9373
G1 X10.4704 Y22.9416
G1 X10.5409 Y22.9668
G1 X10.5537 Y22.9717
G1 X10.5662 Y22.9773
G1 X10.6338 Y23.0093
G1 X10.6461 Y23.0155
G1 X10.6581 Y23.0222
G1 X10.7222 Y23.0607
G1 X10.7338 Y23.0680
G1 X10.7451 Y23.0759
G1 X10.8051 Y23.1205
G1 X10.8160 Y23.1289
G1 X10.8264 Y23.1379
G1 X10.8818 Y23.1881
G1 X10.8917 Y23.1976
G1 X10.9012 Y23.2076
G1 X10.9514 Y23.2630
G1 X10.9604 Y23.2734
G1 X10.9688 Y23.2842
G1 X11.0134 Y23.3443
G1 X11.0213 Y23.3555
G1 X11.0287 Y23.3671
G1 X11.0671 Y23.4313
G1 X11.0739 Y23.4432
G1 X11.0801 Y23.4555
G1 X11.1120 Y23.5231
G1 X11.1176 Y23.5357
G1 X11.1225 Y23.5485
G1 X11.1477 Y23.6189
G1 X11.1520 Y23.6319
G1 X11.1557 Y23.6452
G1 X11.1739 Y23.7177
G1 X11.1769 Y23.7311
G1 X11.1792 Y23.7447
G1 X11.1902 Y23.8186
G1 X11.1919 Y23.8323
G1 X11.1929 Y23.8460
G1 X11.1966 Y23.9207
G1 X11.1969 Y23.9344
G1 X11.1966 Y23.9482
G1 X11.1929 Y24.0228
G1 X11.1919 Y24.0366
G1 X11.1902 Y24.0502
G1 X11.1792 Y24.1242
G1 X11.1769 Y24.1377
G1 X11.1739 Y24.1511
G1 X11.1557 Y24.2236
G1 X11.1520 Y24.2369
G1 X11.1477 Y24.2499
G1 X11.1225 Y24.3204
G1 X11.1176 Y24.3332
G1 X11.1120 Y24.3457
G1 X11.0801 Y24.4133
G1 X11.0739 Y24.4256
G1 X11.0671 Y24.4376
G1 X11.0287 Y24.5017
G1 X11.0213 Y24.5133
G1 X11.0134 Y24.5246
G1 X10.9688 Y24.5846
G1 X10.9604 Y24.5955
G1 X10.9514 Y24.6059
G1 X10.9012 Y24.6613
G1 X10.8917 Y24.6712
G1 X10.8818 Y24.6807
G1 X10.8264 Y24.7309
G1 X10.8160 Y24.7399
G1 X10.8051 Y24.7483
G1 X10.7451 Y24.7929
G1 X10.7338 Y24.8008
G1 X10.7222 Y24.8082
G1 X10.6581 Y24.8466
G1 X10.6461 Y24.8534
G1 X10.6338 Y24.8596
G1 X10.5662 Y24.8915
G1 X10.5537 Y24.8971
G1 X10.5409 Y24.9020
G1 X10.4704 Y24.9272
G1 X10.4574 Y24.9315
G1 X10.4441 Y24.9352
G1 X10.3716 Y24.9534
G1 X10.3582 Y24.9564
G1 X10.3447 Y24.9587
G1 X10.2707 Y24.9697
G1 X10.2571 Y24.9714
G1 X10.2433 Y24.9724
G1 X10.1687 Y24.9761
G1 X10.1549 Y24.9764
G1 X10.1412 Y24.9761
G1 X10.0665 Y24.9724
G1 X10.0528 Y24.9714
G1 X10.0391 Y24.9697
G1 X9.9652 Y24.9587
G1 X9.9516 Y24.9564
G1 X9.9382 Y24.9534
G1 X9.8657 Y24.9352
G1 X9.8524 Y24.9315
G1 X9.8394 Y24.9272
G1 X9.7690 Y24.9020
G1 X9.7562 Y24.8971
G1 X9.7436 Y24.8915
G1 X9.6760 Y24.8596
G1 X9.6637 Y24.8534
G1 X9.6518 Y24.8466
G1 X9.5876 Y24.8082
G1 X9.5760 Y24.8008
G1 X9.5648 Y24.7929
G1 X9.5047 Y24.7483
G1 X9.4939 Y24.7399
G1 X9.4835 Y24.7309
G1 X9.4281 Y24.6807
G1 X9.4181 Y24.6712
G1 X9.4086 Y24.6613
G1 X9.3584 Y24.6059
G1 X9.3494 Y24.5955
G1 X9.3410 Y24.5846
G1 X9.2964 Y24.5246
G1 X9.2885 Y24.5133
G1 X9.2812 Y24.5017
G1 X9.2427 Y24.4376
G1 X9.2360 Y24.4256
G1 X9.2298 Y24.4133
G1 X9.1978 Y24.3457
G1 X9.1922 Y24.3332
G1 X9.1873 Y24.3204
G1 X9.1621 Y24.2499
G1 X9.1578 Y24.2369
G1 X9.1541 Y24.2236
G1 X9.1360 Y24.1511
G1 X9.1329 Y24.1377
G1 X9.1306 Y24.1242
G1 X9.1196 Y24.0502
G1 X9.1179 Y24.0366
G1 X9.1169 Y24.0228
G1 X9.1133 Y23.9482
G0 Z2.0000
G0 X9.9574 Y25.1396
F500
G1 Z0.0000 F500
F300
G1 X10.0239 Y25.1493
G1 X10.0464 Y25.1515
G1 X10.1323 Y25.1559
G1 X10.1549 Y25.1564
G1 X10.1775 Y25.1559
G1 X10.2634 Y25.1515
G1 X10.2859 Y25.1493
G1 X10.3525 Y25.1396
G1 X10.3515 Y25.1510
G1 X10.3504 Y25.1734
G1 X10.3502 Y25.2242
G1 X10.3508 Y25.2467
G1 X10.3525 Y25.2693
G1 X10.2859 Y25.2595
G1 X10.2634 Y25.2573
G1 X10.1775 Y25.2530
G1 X10.1549 Y25.2524
G1 X10.1323 Y25.2530
G1 X10.0464 Y25.2573
G1 X10.0239 Y25.2595
G1 X9.9574 Y25.2693
G1 X9.9590 Y25.2467
G1 X9.9596 Y25.2242
G1 X9.9595 Y25.1734
G1 X9.9584 Y25.1510
G1 X9.9574 Y25.1396
G0 Z2.0000
G0 X9.2930 Y26.4793
F500
G1 Z0.0000 F500
F300
G1 X9.2930 Y26.4695
G1 X9.2971 Y26.3899
G1 X9.3095 Y26.3063
G1 X9.3300 Y26.2242
G1 X9.3585 Y26.1445
G1 X9.3947 Y26.0681
G1 X9.4382 Y25.9955
G1 X9.4886 Y25.9276
G1 X9.5454 Y25.8649
G1 X9.6081 Y25.8081
G1 X9.6760 Y25.7577
G1 X9.7486 Y25.7142
G1 X9.8250 Y25.6780
G1 X9.9047 Y25.6495
G1 X9.9868 Y25.6290
G1 X10.0704 Y25.6166
G1 X10.1549 Y25.6124
G1 X10.2394 Y25.6166
G1 X10.3231 Y25.6290
G1 X10.4051 Y25.6495
G1 X10.4848 Y25.6780
G1 X10.5613 Y25.7142
G1 X10.6338 Y25.7577
G1 X10.7018 Y25.8081
G1 X10.7644 Y25.8649
G1 X10.8213 Y25.9276
G1 X10.8716 Y25.9955
G1 X10.9151 Y26.0681
G1 X10.9513 Y26.1445
G1 X10.9798 Y26.2242
G1 X11.0004 Y26.3063
G1 X11.0128 Y26.3899
G1 X11.0169 Y26.4744
G1 X11.0128 Y26.5589
G1 X11.0004 Y26.6426
G1 X10.9798 Y26.7246
G1 X10.9513 Y26.8043
G1 X10.9151 Y26.8808
G1 X10.8716 Y26.9533
G1 X10.8213 Y27.0213
G1 X10.7644 Y27.0839
G1 X10.7018 Y27.1408
G1 X10.6338 Y27.1911
G1 X10.5613 Y27.2346
G1 X10.4848 Y27.2708
G1 X10.4051 Y27.2993
G1 X10.3231 Y27.3199
G1 X10.2394 Y27.3323
G1 X10.1549 Y27.3364
G1 X10.0704 Y27.3323
G1 X9.9868 Y27.3199
G1 X9.9047 Y27.2993
G1 X9.8250 Y27.2708
G1 X9.7486 Y27.2346
G1 X9.6760 Y27.1911
G1 X9.6081 Y27.1408
G1 X9.5454 Y27.0839
G1 X9.4886 Y27.0213
G1 X9.4382 Y26.9533
G1 X9.3947 Y26.8808
G1 X9.3585 Y26.8043
G1 X9.3300 Y26.7246
G1 X9.3095 Y26.6426
G1 X9.2971 Y26.5589
G1 X9.2930 Y26.4793
G0 Z2.0000
G0 X9.1133 Y26.4882
F500
G1 Z0.0000 F500
F300
G1 X9.1129 Y26.4744
G1 X9.1133 Y26.4607
G1 X9.1169 Y26.3860
G1 X9.1179 Y26.3723
G1 X9.1196 Y26.3586
G1 X9.1306 Y26.2847
G1 X9.1329 Y26.2711
G1 X9.1360 Y26.2577
G1 X9.1541 Y26.1852
G1 X9.1578 Y26.1719
G1 X9.1621 Y26.1589
G1 X9.1873 Y26.0885
G1 X9.1922 Y26.0757
G1 X9.1978 Y26.0631
G1 X9.2298 Y25.9955
G1 X9.2360 Y25.9832
G1 X9.2427 Y25.9713
G1 X9.2812 Y25.9071
G1 X9.2885 Y25.8955
G1 X9.2964 Y25.8843
G1 X9.3410 Y25.8242
G1 X9.3494 Y25.8134
G1 X9.3584 Y25.8030
G1 X9.4086 Y25.7476
G1 X9.4181 Y25.7376
G1 X9.4281 Y25.7281
G1 X9.4835 Y25.6779
G1 X9.4939 Y25.6689
G1 X9.5047 Y25.6605
G1 X9.5648 Y25.6159
G1 X9.5760 Y25.6080
G1 X9.5876 Y25.6007
G1 X9.6518 Y25.5622
G1 X9.6637 Y25.5555
G1 X9.6760 Y25.5493
G1 X9.7436 Y25.5173
G1 X9.7562 Y25.5117
G1 X9.7690 Y25.5068
G1 X9.8394 Y25.4816
G1 X9.8524 Y25.4773
G1 X9.8657 Y25.4736
G1 X9.9382 Y25.4555
G1 X9.9516 Y25.4524
G1 X9.9652 Y25.4501
G1 X10.0391 Y25.4391
G1 X10.0528 Y25.4374
G1 X10.0665 Y25.4364
G1 X10.1412 Y25.4328
G1 X10.1549 Y25.4324
G1 X10.1687 Y25.4328
G1 X10.2433 Y25.4364
G1 X10.2571 Y25.4374
G1 X10.2707 Y25.4391
G1 X10.3447 Y25.4501
G1 X10.3582 Y25.4524
G1 X10.3716 Y25.4555
G1 X10.4441 Y25.4736
G1 X10.4574 Y25.4773
G1 X10.4704 Y25.4816
G1 X10.5409 Y25.5068
G1 X10.5537 Y25.5117
G1 X10.5662 Y25.5173
G1 X10.6338 Y25.5493
G1 X10.6461 Y25.5555
G1 X10.6581 Y25.5622
G1 X10.7222 Y25.6007
G1 X10.7338 Y25.6080
G1 X10.7451 Y25.6159
G1 X10.8051 Y25.6605
G1 X10.8160 Y25.6689
G1 X10.8264 Y25.6779
G1 X10.8818 Y25.7281
G1 X10.8917 Y25.7376
G1 X10.9012 Y25.7476
G1 X10.9514 Y25.8030
G1 X10.9604 Y25.8134
G1 X10.9688 Y25.8242
G1 X11.0134 Y25.8843
G1 X11.0213 Y25.8955
G1 X11.0287 Y25.9071
G1 X11.0671 Y25.9713
G1 X11.0739 Y25.9832
G1 X11.0801 Y25.9955
G1 X11.1120 Y26.0631
G1 X11.1176 Y26.0757
G1 X11.1225 Y26.0885
G1 X11.1477 Y26.1589
G1 X11.1520 Y26.1719
G1 X11.1557 Y26.1852
G1 X11.1739 Y26.2577
G1 X11.1769 Y26.2711
G1 X11.1792 Y26.2847
G1 X11.1902 Y26.3586
G1 X11.1919 Y26.3723
G1 X11.1929 Y26.3860
G1 X11.1966 Y26.4607
G1 X11.1969 Y26.4744
G1 X11.1966 Y26.4882
G1 X11.1929 Y26.5628
G1 X11.1919 Y26.5766
G1 X11.1902 Y26.5902
G1 X11.1792 Y26.6642
G1 X11.1769 Y26.6777
G1 X11.1739 Y26.6911
G1 X11.1557 Y26.7636
G1 X11.1520 Y26.7769
G1 X11.1477 Y26.7899
G1 X11.1225 Y26.8604
G1 X11.1176 Y26.8732
G1 X11.1120 Y26.8857
G1 X11.0801 Y26.9533
G1 X11.0739 Y26.9656
G1 X11.0671 Y26.9776
G1 X11.0287 Y27.0417
G1 X11.0213 Y27.0533
G1 X11.0134 Y27.0646
G1 X10.9688 Y27.1246
G1 X10.9604 Y27.1355
G1 X10.9514 Y27.1459
G1 X10.9012 Y27.2013
G1 X10.8917 Y27.2112
G1 X10.8818 Y27.2207
G1 X10.8264 Y27.2709
G1 X10.8160 Y27.2799
G1 X10.8051 Y27.2883
G1 X10.7451 Y27.3329
G1 X10.7338 Y27.3408
G1 X10.7222 Y27.3482
G1 X10.6581 Y27.3866
G1 X10.6461 Y27.3934
G1 X10.6338 Y27.3996
G1 X10.5662 Y27.4315
G1 X10.5537 Y27.4371
G1 X10.5409 Y27.4420
G1 X10.4704 Y27.4672
G1 X10.4574 Y27.4715
G1 X10.4441 Y27.4752
G1 X10.3716 Y27.4934
G1 X10.3582 Y27.4964
G1 X10.3447 Y27.4987
G1 X10.2707 Y27.5097
G1 X10.2571 Y27.5114
G1 X10.2433 Y27.5124
G1 X10.1687 Y27.5161
G1 X10.1549 Y27.5164
G1 X10.1412 Y27.5161
G1 X10.0665 Y27.5124
G1 X10.0528 Y27.5114
G1 X10.0391 Y27.5097
G1 X9.9652 Y27.4987
G1 X9.9516 Y27.4964
G1 X9.9382 Y27.4934
G1 X9.8657 Y27.4752
G1 X9.8524 Y27.4715
G1 X9.8394 Y27.4672
G1 X9.7690 Y27.4420
G1 X9.7562 Y27.4371
G1 X9.7436 Y27.4315
G1 X9.6760 Y27.3996
G1 X9.6637 Y27.3934
G1 X9.6518 Y27.3866
G1 X9.5876 Y27.3482
G1 X9.5760 Y27.3408
G1 X9.5648 Y27.3329
G1 X9.5047 Y27.2883
G1 X9.4939 Y27.2799
G1 X9.4835 Y27.2709
G1 X9.4281 Y27.2207
G1 X9.4181 Y27.2112
G1 X9.4086 Y27.2013
G1 X9.3584 Y27.1459
G1 X9.3494 Y27.1355
G1 X9.3410 Y27.1246
G1 X9.2964 Y27.0646
G1 X9.2885 Y27.0533
G1 X9.2812 Y27.0417
G1 X9.2427 Y26.9776
G1 X9.2360 Y26.9656
G1 X9.2298 Y26.9533
G1 X9.1978 Y26.8857
G1 X9.1922 Y26.8732
G1 X9.1873 Y26.8604
G1 X9.1621 Y26.7899
G1 X9.1578 Y26.7769
G1 X9.1541 Y26.7636
G1 X9.1360 Y26.6911
G1 X9.1329 Y26.6777
G1 X9.1306 Y26.6642
G1 X9.1196 Y26.5902
G1 X9.1179 Y26.5766
G1 X9.1169 Y26.5628
G1 X9.1133 Y26.4882
G0 Z2.0000
G0 X11.0811 Y18.0383
F500
G1 Z0.0000 F500
F300
G1 X11.0811 Y18.0581
G1 X11.0690 Y18.0447
G1 X11.0811 Y18.0383
G0 Z2.0000
G0 X24.5100 Y18.3058
F500
G1 Z0.0000 F500
F300
G1 X24.4991 Y18.3239
G1 X24.4991 Y18.3167
G1 X24.5100 Y18.3058
G0 Z2.0000
G0 X24.5330 Y18.8593
F500
G1 Z0.0000 F500
F300
G1 X24.5330 Y18.8495
G1 X24.5371 Y18.7699
G1 X24.5495 Y18.6863
G1 X24.5700 Y18.6042
G1 X24.5985 Y18.5245
G1 X24.6347 Y18.4481
G1 X24.6782 Y18.3755
G1 X24.7286 Y18.3076
G1 X24.7854 Y18.2449
G1 X24.8481 Y18.1881
G1 X24.9160 Y18.1377
G1 X24.9886 Y18.0942
G1 X25.0650 Y18.0580
G1 X25.1447 Y18.0295
G1 X25.2268 Y18.0090
G1 X25.3104 Y17.9966
G1 X25.3949 Y17.9924
G1 X25.4794 Y17.9966
G1 X25.5631 Y18.0090
G1 X25.6451 Y18.0295
G1 X25.7248 Y18.0580
G1 X25.8013 Y18.0942
G1 X25.8738 Y18.1377
G1 X25.9418 Y18.1881
G1 X26.0044 Y18.2449
G1 X26.0613 Y18.3076
G1 X26.1116 Y18.3755
G1 X26.1551 Y18.4481
G1 X26.1913 Y18.5245
G1 X26.2198 Y18.6042
G1 X26.2404 Y18.6863
G1 X26.2528 Y18.7699
G1 X26.2569 Y18.8544
G1 X26.2528 Y18.9389
G1 X26.2404 Y19.0226
G1 X26.2198 Y19.1046
G1 X26.1913 Y19.1843
G1 X26.1551 Y19.2608
G1 X26.1116 Y19.3333
G1 X26.0613 Y19.4013
G1 X26.0044 Y19.4639
G1 X25.9418 Y19.5208
G1 X25.8738 Y19.5711
G1 X25.8013 Y19.6146
G1 X25.7248 Y19.6508
G1 X25.6451 Y19.6793
G1 X25.5631 Y19.6999
G1 X25.4794 Y19.7123
G1 X25.3949 Y19.7164
G1 X25.3104 Y19.7123
G1 X25.2268 Y19.6999
G1 X25.1447 Y19.6793
G1 X25.0650 Y19.6508
G1 X24.9886 Y19.6146
G1 X24.9160 Y19.5711
G1 X24.8481 Y19.5208
G1 X24.7854 Y19.4639
G1 X24.7286 Y19.4013
G1 X24.6782 Y19.3333
G1 X24.6347 Y19.2608
G1 X24.5985 Y19.1843
G1 X24.5700 Y19.1046
G1 X24.5495 Y19.0226
G1 X24.5371 Y18.9389
G1 X24.5330 Y18.8593
G0 Z2.0000
G0 X24.4991 Y19.3850
F500
G1 Z0.0000 F500
F300
G1 X24.5212 Y19.4217
G1 X24.5324 Y19.4390
G1 X24.5851 Y19.5101
G1 X24.5984 Y19.5259
G1 X24.6533 Y19.5863
G1 X24.6681 Y19.6007
G1 X24.7235 Y19.6509
G1 X24.7339 Y19.6599
G1 X24.7447 Y19.6683
G1 X24.8048 Y19.7129
G1 X24.8218 Y19.7246
G1 X24.8918 Y19.7666
G1 X24.9037 Y19.7734
G1 X24.9160 Y19.7796
G1 X24.9836 Y19.8115
G1 X24.9962 Y19.8171
G1 X25.0090 Y19.8220
G1 X25.0794 Y19.8472
G1 X25.0924 Y19.8515
G1 X25.1057 Y19.8552
G1 X25.1782 Y19.8734
G1 X25.1916 Y19.8764
G1 X25.2052 Y19.8787
G1 X25.2791 Y19.8897
G1 X25.2996 Y19.8920
G1 X25.3812 Y19.8961
G1 X25.3949 Y19.8964
G1 X25.4087 Y19.8961
G1 X25.4833 Y19.8924
G1 X25.4971 Y19.8914
G1 X25.5107 Y19.8897
G1 X25.5847 Y19.8787
G1 X25.5982 Y19.8764
G1 X25.6116 Y19.8734
G1 X25.6841 Y19.8552
G1 X25.6974 Y19.8515
G1 X25.7104 Y19.8472
G1 X25.7809 Y19.8220
G1 X25.7937 Y19.8171
G1 X25.8062 Y19.8115
G1 X25.8738 Y19.7796
G1 X25.8861 Y19.7734
G1 X25.8981 Y19.7666
G1 X25.9622 Y19.7282
G1 X25.9738 Y19.7208
G1 X25.9851 Y19.7129
G1 X26.0451 Y19.6683
G1 X26.0560 Y19.6599
G1 X26.0664 Y19.6509
G1 X26.1218 Y19.6007
G1 X26.1317 Y19.5912
G1 X26.1412 Y19.5813
G1 X26.1914 Y19.5259
G1 X26.2047 Y19.5101
G1 X26.2534 Y19.4446
G1 X26.2613 Y19.4333
G1 X26.2687 Y19.4217
G1 X26.3071 Y19.3576
G1 X26.3139 Y19.3456
G1 X26.3201 Y19.3333
G1 X26.3520 Y19.2657
G1 X26.3576 Y19.2532
G1 X26.3625 Y19.2404
G1 X26.3877 Y19.1699
G1 X26.3920 Y19.1569
G1 X26.3957 Y19.1436
G1 X26.4139 Y19.0711
G1 X26.4169 Y19.0577
G1 X26.4192 Y19.0442
G1 X26.4302 Y18.9702
G1 X26.4319 Y18.9566
G1 X26.4329 Y18.9428
G1 X26.4366 Y18.8682
G1 X26.4369 Y18.8544
G1 X26.4366 Y18.8407
G1 X26.4329 Y18.7660
G1 X26.4319 Y18.7523
G1 X26.4302 Y18.7386
G1 X26.4192 Y18.6647
G1 X26.4169 Y18.6511
G1 X26.4139 Y18.6377
G1 X26.3957 Y18.5652
G1 X26.3900 Y18.5454
G1 X26.3625 Y18.4685
G1 X26.3576 Y18.4557
G1 X26.3520 Y18.4431
G1 X26.3201 Y18.3755
G1 X26.3139 Y18.3632
G1 X26.3071 Y18.3513
G1 X26.2687 Y18.2871
G1 X26.2613 Y18.2755
G1 X26.2534 Y18.2643
G1 X26.2088 Y18.2042
G1 X26.2004 Y18.1934
G1 X26.1914 Y18.1830
G1 X26.1412 Y18.1276
G1 X26.1268 Y18.1128
G1 X26.0664 Y18.0579
G1 X26.0560 Y18.0489
G1 X26.0451 Y18.0405
G1 X25.9851 Y17.9959
G1 X25.9738 Y17.9880
G1 X25.9622 Y17.9807
G1 X25.8921 Y17.9388
G1 X25.8738 Y17.9293
G1 X25.8062 Y17.8973
G1 X25.7937 Y17.8917
G1 X25.7809 Y17.8868
G1 X25.7039 Y17.8594
G1 X25.6908 Y17.8554
G1 X25.6774 Y17.8519
G1 X47.4890 Y17.8519
G1 X61.8275 Y32.1930
G1 X61.8375 Y32.2025
G1 X61.8744 Y32.2360
G1 X61.8849 Y32.2450
G1 X61.8957 Y32.2534
G1 X61.9358 Y32.2832
G1 X61.9470 Y32.2911
G1 X61.9586 Y32.2984
G1 X62.0014 Y32.3241
G1 X62.0133 Y32.3309
G1 X62.0256 Y32.3370
G1 X62.0707 Y32.3584
G1 X62.0897 Y32.3665
G1 X62.1431 Y32.3857
G1 X62.1561 Y32.3900
G1 X62.1694 Y32.3937
G1 X62.2178 Y32.4058
G1 X62.2312 Y32.4088
G1 X62.2447 Y32.4111
G1 X62.2941 Y32.4185
G1 X62.3145 Y32.4207
G1 X62.3712 Y32.4236
G1 X62.3850 Y32.4239
G1 X86.5657 Y32.4239
G1 X86.5795 Y32.4236
G1 X86.6293 Y32.4212
G1 X86.6430 Y32.4202
G1 X86.6567 Y32.4185
G1 X86.7060 Y32.4111
G1 X86.7263 Y32.4074
G1 X86.7814 Y32.3937
G1 X86.7946 Y32.3900
G1 X86.8077 Y32.3857
G1 X86.8546 Y32.3689
G1 X86.8674 Y32.3639
G1 X86.8800 Y32.3584
G1 X86.9251 Y32.3370
G1 X86.9374 Y32.3308
G1 X86.9493 Y32.3241
G1 X86.9921 Y32.2984
G1 X87.0037 Y32.2911
G1 X87.0150 Y32.2831
G1 X87.0550 Y32.2534
G1 X87.0659 Y32.2450
G1 X87.0763 Y32.2360
G1 X87.1133 Y32.2025
G1 X87.1232 Y32.1930
G1 X94.4907 Y24.8232
G1 X96.7881 Y27.1206
G1 X96.7316 Y27.1065
G1 X96.7182 Y27.1034
G1 X96.7047 Y27.1011
G1 X96.6307 Y27.0901
G1 X96.6171 Y27.0884
G1 X96.6033 Y27.0874
G1 X96.5287 Y27.0838
G1 X96.5149 Y27.0834
G1 X96.5012 Y27.0838
G1 X96.4265 Y27.0874
G1 X96.4128 Y27.0884
G1 X96.3991 Y27.0901
G1 X96.3252 Y27.1011
G1 X96.3116 Y27.1034
G1 X96.2982 Y27.1065
G1 X96.2190 Y27.1264
G1 X96.1994 Y27.1326
G1 X96.1290 Y27.1578
G1 X96.1162 Y27.1627
G1 X96.1036 Y27.1683
G1 X96.0360 Y27.2003
G1 X96.0237 Y27.2065
G1 X96.0118 Y27.2132
G1 X95.9476 Y27.2517
G1 X95.9360 Y27.2590
G1 X95.9248 Y27.2669
G1 X95.8647 Y27.3115
G1 X95.8539 Y27.3199
G1 X95.8435 Y27.3289
G1 X95.7881 Y27.3791
G1 X95.7781 Y27.3886
G1 X95.7686 Y27.3986
G1 X95.7184 Y27.4540
G1 X95.7094 Y27.4644
G1 X95.7010 Y27.4752
G1 X95.6564 Y27.5353
G1 X95.6485 Y27.5465
G1 X95.6412 Y27.5581
G1 X95.6027 Y27.6223
G1 X95.5960 Y27.6342
G1 X95.5898 Y27.6465
G1 X95.5578 Y27.7141
G1 X95.5522 Y27.7267
G1 X95.5473 Y27.7395
G1 X95.5221 Y27.8099
G1 X95.5178 Y27.8229
G1 X95.5141 Y27.8362
G1 X95.4960 Y27.9087
G1 X95.4929 Y27.9221
G1 X95.4906 Y27.9357
G1 X95.4796 Y28.0096
G1 X95.4779 Y28.0233
G1 X95.4769 Y28.0370
G1 X95.4733 Y28.1117
G1 X95.4729 Y28.1254
G1 X95.4733 Y28.1392
G1 X95.4769 Y28.2138
G1 X95.4779 Y28.2276
G1 X95.4796 Y28.2412
G1 X95.4916 Y28.3215
G1 X90.7481 Y33.0650
G1 X74.5030 Y33.0650
G1 X74.4600 Y33.0070
G1 X74.4516 Y32.9961
G1 X74.4426 Y32.9857
G1 X74.3931 Y32.9311
G1 X74.3836 Y32.9212
G1 X74.3737 Y32.9117
G1 X74.3191 Y32.8623
G1 X74.3087 Y32.8533
G1 X74.2979 Y32.8448
G1 X74.2387 Y32.8009
G1 X74.2275 Y32.7930
G1 X74.2159 Y32.7857
G1 X74.1527 Y32.7478
G1 X74.1407 Y32.7410
G1 X74.1284 Y32.7349
G1 X74.0619 Y32.7034
G1 X74.0493 Y32.6978
G1 X74.0365 Y32.6929
G1 X73.9671 Y32.6680
G1 X73.9541 Y32.6637
G1 X73.9408 Y32.6601
G1 X73.8694 Y32.6422
G1 X73.8492 Y32.6379
G1 X73.7696 Y32.6260
G1 X73.7559 Y32.6243
G1 X73.7422 Y32.6233
G1 X73.6687 Y32.6197
G1 X73.6549 Y32.6194
G1 X73.6412 Y32.6197
G1 X73.5676 Y32.6233
G1 X73.5539 Y32.6243
G1 X73.5403 Y32.6260
G1 X73.4674 Y32.6368
G1 X73.4539 Y32.6392
G1 X73.4405 Y32.6422
G1 X73.3690 Y32.6601
G1 X73.3492 Y32.6658
G1 X73.2734 Y32.6929
G1 X73.2605 Y32.6978
G1 X73.2480 Y32.7034
G1 X73.1814 Y32.7349
G1 X73.1691 Y32.7410
G1 X73.1572 Y32.7478
G1 X73.0940 Y32.7857
G1 X73.0824 Y32.7930
G1 X73.0711 Y32.8009
G1 X73.0120 Y32.8448
G1 X73.0011 Y32.8533
G1 X72.9907 Y32.8623
G1 X72.9361 Y32.9117
G1 X72.9262 Y32.9212
G1 X72.9167 Y32.9311
G1 X72.8673 Y32.9857
G1 X72.8583 Y32.9961
G1 X72.8498 Y33.0070
G1 X72.8059 Y33.0661
G1 X72.7980 Y33.0774
G1 X72.7907 Y33.0890
G1 X72.7528 Y33.1522
G1 X72.7460 Y33.1641
G1 X72.7399 Y33.1764
G1 X72.7084 Y33.2430
G1 X72.7002 Y33.2619
G1 X72.6730 Y33.3377
G1 X72.6687 Y33.3508
G1 X72.6651 Y33.3640
G1 X72.6472 Y33.4355
G1 X72.6442 Y33.4489
G1 X72.6418 Y33.4624
G1 X72.6310 Y33.5353
G1 X72.6293 Y33.5489
G1 X72.6283 Y33.5626
G1 X72.6247 Y33.6362
G1 X72.6244 Y33.6499
G1 X72.6247 Y33.6637
G1 X72.6283 Y33.7372
G1 X72.6293 Y33.7509
G1 X72.6310 Y33.7646
G1 X72.6418 Y33.8374
G1 X72.6442 Y33.8510
G1 X72.6472 Y33.8644
G1 X72.6651 Y33.9358
G1 X72.6687 Y33.9491
G1 X72.6730 Y33.9621
G1 X72.6979 Y34.0315
G1 X72.7028 Y34.0443
G1 X72.7084 Y34.0569
G1 X72.7399 Y34.1234
G1 X72.7460 Y34.1357
G1 X72.7528 Y34.1477
G1 X72.7907 Y34.2109
G1 X72.7980 Y34.2225
G1 X72.8059 Y34.2337
G1 X72.8498 Y34.2929
G1 X72.8583 Y34.3037
G1 X72.8673 Y34.3141
G1 X72.9167 Y34.3687
G1 X72.9262 Y34.3786
G1 X72.9361 Y34.3881
G1 X72.9907 Y34.4376
G1 X73.0011 Y34.4466
G1 X73.0120 Y34.4550
G1 X73.0711 Y34.4989
G1 X73.0824 Y34.5068
G1 X73.0940 Y34.5142
G1 X73.1572 Y34.5520
G1 X73.1691 Y34.5588
G1 X73.1814 Y34.5650
G1 X73.2480 Y34.5965
G1 X73.2605 Y34.6020
G1 X73.2734 Y34.6070
G1 X73.3427 Y34.6318
G1 X73.3558 Y34.6361
G1 X73.3690 Y34.6398
G1 X73.4405 Y34.6577
G1 X73.4539 Y34.6607
G1 X73.4674 Y34.6630
G1 X73.5403 Y34.6738
G1 X73.5539 Y34.6755
G1 X73.5676 Y34.6765
G1 X73.6412 Y34.6801
G1 X73.6549 Y34.6805
G1 X73.6687 Y34.6801
G1 X73.7422 Y34.6765
G1 X73.7559 Y34.6755
G1 X73.7696 Y34.6738
G1 X73.8424 Y34.6630
G1 X73.8560 Y34.6607
G1 X73.8694 Y34.6577
G1 X73.9408 Y34.6398
G1 X73.9541 Y34.6361
G1 X73.9671 Y34.6318
G1 X74.0365 Y34.6070
G1 X74.0493 Y34.6020
G1 X74.0619 Y34.5965
G1 X74.1284 Y34.5650
G1 X74.1407 Y34.5588
G1 X74.1527 Y34.5520
G1 X74.2159 Y34.5142
G1 X74.2275 Y34.5068
G1 X74.2387 Y34.4989
G1 X74.2979 Y34.4550
G1 X74.3087 Y34.4466
G1 X74.3191 Y34.4376
G1 X74.3787 Y34.3834
G1 X74.3931 Y34.3687
G1 X74.4426 Y34.3141
G1 X74.4516 Y34.3037
G1 X74.4600 Y34.2929
G1 X74.5030 Y34.2349
G1 X90.9904 Y34.2349
G1 X91.0340 Y34.2331
G1 X91.0546 Y34.2313
G1 X91.0978 Y34.2249
G1 X91.1179 Y34.2206
G1 X91.1602 Y34.2097
G1 X91.2014 Y34.1953
G1 X91.2206 Y34.1876
G1 X91.2539 Y34.1720
G1 X91.2662 Y34.1658
G1 X91.2781 Y34.1590
G1 X91.3096 Y34.1400
G1 X91.3266 Y34.1284
G1 X91.3615 Y34.1021
G1 X91.3719 Y34.0931
G1 X91.3991 Y34.0683
G1 X96.3189 Y29.1487
G1 X96.3991 Y29.1607
G1 X96.4128 Y29.1624
G1 X96.4265 Y29.1634
G1 X96.5012 Y29.1671
G1 X96.5149 Y29.1674
G1 X96.5287 Y29.1671
G1 X96.6033 Y29.1634
G1 X96.6171 Y29.1624
G1 X96.6307 Y29.1607
G1 X96.7047 Y29.1497
G1 X96.7182 Y29.1474
G1 X96.7316 Y29.1444
G1 X96.8041 Y29.1262
G1 X96.8174 Y29.1225
G1 X96.8304 Y29.1182
G1 X96.9009 Y29.0930
G1 X96.9137 Y29.0881
G1 X96.9262 Y29.0825
G1 X96.9938 Y29.0506
G1 X97.0061 Y29.0444
G1 X97.0181 Y29.0376
G1 X97.0822 Y28.9992
G1 X97.0938 Y28.9918
G1 X97.1051 Y28.9839
G1 X97.1651 Y28.9393
G1 X97.1760 Y28.9309
G1 X97.1864 Y28.9219
G1 X97.2418 Y28.8717
G1 X97.2517 Y28.8622
G1 X97.2612 Y28.8523
G1 X97.3114 Y28.7969
G1 X97.3204 Y28.7865
G1 X97.3288 Y28.7756
G1 X97.3734 Y28.7156
G1 X97.3813 Y28.7043
G1 X97.3887 Y28.6927
G1 X97.4271 Y28.6286
G1 X97.4339 Y28.6166
G1 X97.4401 Y28.6043
G1 X97.4720 Y28.5367
G1 X97.4776 Y28.5242
G1 X97.4825 Y28.5114
G1 X97.5077 Y28.4409
G1 X97.5140 Y28.4213
G1 X97.5339 Y28.3421
G1 X97.5369 Y28.3287
G1 X97.5392 Y28.3152
G1 X97.5502 Y28.2412
G1 X97.5519 Y28.2276
G1 X97.5529 Y28.2138
G1 X97.5566 Y28.1392
G1 X97.5569 Y28.1254
G1 X97.5566 Y28.1117
G1 X97.5529 Y28.0370
G1 X97.5519 Y28.0233
G1 X97.5502 Y28.0096
G1 X97.5392 Y27.9357
G1 X97.5369 Y27.9221
G1 X97.5339 Y27.9087
G1 X97.5197 Y27.8522
G1 X112.2367 Y42.5690
G1 X112.2367 Y58.3316
G1 X112.2088 Y58.3624
G1 X112.1955 Y58.3781
G1 X112.1453 Y58.4457
G1 X112.1337 Y58.4627
G1 X112.0903 Y58.5348
G1 X112.0836 Y58.5467
G1 X112.0774 Y58.5590
G1 X112.0443 Y58.6289
G1 X112.0388 Y58.6414
G1 X112.0338 Y58.6543
G1 X112.0078 Y58.7270
G1 X112.0035 Y58.7401
G1 X111.9998 Y58.7533
G1 X111.9795 Y58.8350
G1 X111.9757 Y58.8552
G1 X111.9634 Y58.9385
G1 X111.9616 Y58.9590
G1 X111.9596 Y59.0005
G1 X111.4443 Y59.5158
G1 X111.4655 Y59.4710
G1 X111.4736 Y59.4520
G1 X111.5020 Y59.3728
G1 X111.5083 Y59.3532
G1 X111.5288 Y59.2716
G1 X111.5318 Y59.2582
G1 X111.5342 Y59.2446
G1 X111.5464 Y59.1614
G1 X111.5482 Y59.1408
G1 X111.5520 Y59.0637
G1 X111.5523 Y59.0499
G1 X111.5520 Y59.0362
G1 X111.5482 Y58.9590
G1 X111.5472 Y58.9453
G1 X111.5455 Y58.9317
G1 X111.5331 Y58.8484
G1 X111.5288 Y58.8283
G1 X111.5100 Y58.7533
G1 X111.5064 Y58.7401
G1 X111.5020 Y58.7270
G1 X111.4760 Y58.6543
G1 X111.4711 Y58.6414
G1 X111.4655 Y58.6289
G1 X111.4325 Y58.5590
G1 X111.4263 Y58.5467
G1 X111.4195 Y58.5348
G1 X111.3798 Y58.4685
G1 X111.3724 Y58.4569
G1 X111.3645 Y58.4457
G1 X111.3185 Y58.3836
G1 X111.3100 Y58.3728
G1 X111.3011 Y58.3624
G1 X111.2492 Y58.3051
G1 X111.2397 Y58.2952
G1 X111.2297 Y58.2857
G1 X111.1725 Y58.2338
G1 X111.1621 Y58.2248
G1 X111.1512 Y58.2164
G1 X111.0892 Y58.1703
G1 X111.0779 Y58.1624
G1 X111.0663 Y58.1551
G1 X111.0000 Y58.1153
G1 X110.9881 Y58.1086
G1 X110.9758 Y58.1024
G1 X110.9060 Y58.0693
G1 X110.8934 Y58.0638
G1 X110.8806 Y58.0588
G1 X110.8078 Y58.0328
G1 X110.7948 Y58.0285
G1 X110.7815 Y58.0248
G1 X110.7066 Y58.0060
G1 X110.6932 Y58.0030
G1 X110.6796 Y58.0007
G1 X110.6032 Y57.9893
G1 X110.5895 Y57.9877
G1 X110.5758 Y57.9866
G1 X110.4987 Y57.9829
G1 X110.4849 Y57.9825
G1 X110.4712 Y57.9829
G1 X110.3940 Y57.9866
G1 X110.3803 Y57.9877
G1 X110.3667 Y57.9893
G1 X110.2902 Y58.0007
G1 X110.2673 Y58.0051
G1 X90.5785 Y38.3163
G1 X90.5686 Y38.3068
G1 X90.5413 Y38.2822
G1 X90.5252 Y38.2693
G1 X90.4899 Y38.2435
G1 X90.4783 Y38.2362
G1 X90.4467 Y38.2174
G1 X90.4284 Y38.2079
G1 X90.3888 Y38.1895
G1 X90.3759 Y38.1845
G1 X90.3413 Y38.1722
G1 X90.3215 Y38.1665
G1 X90.2790 Y38.1562
G1 X90.2359 Y38.1495
G1 X90.2154 Y38.1472
G1 X90.1787 Y38.1453
G1 X90.1649 Y38.1450
G1 X74.5030 Y38.1450
G1 X74.4600 Y38.0870
G1 X74.4516 Y38.0761
G1 X74.4426 Y38.0657
G1 X74.3931 Y38.0111
G1 X74.3787 Y37.9964
G1 X74.3191 Y37.9423
G1 X74.3087 Y37.9333
G1 X74.2979 Y37.9248
G1 X74.2387 Y37.8809
G1 X74.2275 Y37.8730
G1 X74.2159 Y37.8657
G1 X74.1527 Y37.8278
G1 X74.1407 Y37.8210
G1 X74.1284 Y37.8149
G1 X74.0619 Y37.7834
G1 X74.0493 Y37.7778
G1 X74.0365 Y37.7729
G1 X73.9671 Y37.7480
G1 X73.9541 Y37.7437
G1 X73.9408 Y37.7401
G1 X73.8694 Y37.7222
G1 X73.8560 Y37.7192
G1 X73.8424 Y37.7168
G1 X73.7696 Y37.7060
G1 X73.7559 Y37.7043
G1 X73.7422 Y37.7033
G1 X73.6687 Y37.6997
G1 X73.6549 Y37.6994
G1 X73.6412 Y37.6997
G1 X73.5676 Y37.7033
G1 X73.5539 Y37.7043
G1 X73.5403 Y37.7060
G1 X73.4674 Y37.7168
G1 X73.4539 Y37.7192
G1 X73.4405 Y37.7222
G1 X73.3690 Y37.7401
G1 X73.3558 Y37.7437
G1 X73.3427 Y37.7480
G1 X73.2734 Y37.7729
G1 X73.2605 Y37.7778
G1 X73.2480 Y37.7834
G1 X73.1814 Y37.8149
G1 X73.1691 Y37.8210
G1 X73.1572 Y37.8278
G1 X73.0940 Y37.8657
G1 X73.0824 Y37.8730
G1 X73.0711 Y37.8809
G1 X73.0120 Y37.9248
G1 X73.0011 Y37.9333
G1 X72.9907 Y37.9423
G1 X72.9361 Y37.9917
G1 X72.9262 Y38.0012
G1 X72.9167 Y38.0111
G1 X72.8673 Y38.0657
G1 X72.8583 Y38.0761
G1 X72.8498 Y38.0870
G1 X72.8059 Y38.1461
G1 X72.7980 Y38.1574
G1 X72.7907 Y38.1690
G1 X72.7528 Y38.2322
G1 X72.7460 Y38.2441
G1 X72.7399 Y38.2564
G1 X72.7084 Y38.3230
G1 X72.7028 Y38.3355
G1 X72.6979 Y38.3484
G1 X72.6730 Y38.4177
G1 X72.6687 Y38.4308
G1 X72.6651 Y38.4440
G1 X72.6472 Y38.5155
G1 X72.6442 Y38.5289
G1 X72.6418 Y38.5424
G1 X72.6310 Y38.6153
G1 X72.6293 Y38.6289
G1 X72.6283 Y38.6426
G1 X72.6247 Y38.7162
G1 X72.6244 Y38.7299
G1 X72.6247 Y38.7437
G1 X72.6283 Y38.8172
G1 X72.6293 Y38.8309
G1 X72.6310 Y38.8446
G1 X72.6429 Y38.9242
G1 X72.6472 Y38.9444
G1 X72.6651 Y39.0158
G1 X72.6687 Y39.0291
G1 X72.6730 Y39.0421
G1 X72.6979 Y39.1115
G1 X72.7028 Y39.1243
G1 X72.7084 Y39.1369
G1 X72.7429 Y39.2096
G1 X72.7528 Y39.2277
G1 X72.7907 Y39.2909
G1 X72.8019 Y39.3081
G1 X72.8498 Y39.3729
G1 X72.8583 Y39.3837
G1 X72.8673 Y39.3941
G1 X72.9167 Y39.4487
G1 X72.9262 Y39.4586
G1 X72.9361 Y39.4681
G1 X72.9907 Y39.5176
G1 X73.0011 Y39.5266
G1 X73.0120 Y39.5350
G1 X73.0711 Y39.5789
G1 X73.0824 Y39.5868
G1 X73.0940 Y39.5942
G1 X73.1572 Y39.6320
G1 X73.1691 Y39.6388
G1 X73.1814 Y39.6450
G1 X73.2480 Y39.6765
G1 X73.2605 Y39.6820
G1 X73.2734 Y39.6870
G1 X73.3427 Y39.7118
G1 X73.3558 Y39.7161
G1 X73.3690 Y39.7198
G1 X73.4405 Y39.7377
G1 X73.4539 Y39.7407
G1 X73.4674 Y39.7430
G1 X73.5403 Y39.7538
G1 X73.5539 Y39.7555
G1 X73.5676 Y39.7565
G1 X73.6412 Y39.7601
G1 X73.6549 Y39.7605
G1 X73.6687 Y39.7601
G1 X73.7422 Y39.7565
G1 X73.7559 Y39.7555
G1 X73.7696 Y39.7538
G1 X73.8424 Y39.7430
G1 X73.8560 Y39.7407
G1 X73.8694 Y39.7377
G1 X73.9408 Y39.7198
G1 X73.9541 Y39.7161
G1 X73.9671 Y39.7118
G1 X74.0365 Y39.6870
G1 X74.0493 Y39.6820
G1 X74.0619 Y39.6765
G1 X74.1284 Y39.6450
G1 X74.1407 Y39.6388
G1 X74.1527 Y39.6320
G1 X74.2159 Y39.5942
G1 X74.2275 Y39.5868
G1 X74.2387 Y39.5789
G1 X74.2979 Y39.5350
G1 X74.3087 Y39.5266
G1 X74.3191 Y39.5176
G1 X74.3737 Y39.4681
G1 X74.3836 Y39.4586
G1 X74.3931 Y39.4487
G1 X74.4426 Y39.3941
G1 X74.4516 Y39.3837
G1 X74.4600 Y39.3729
G1 X74.5030 Y39.3149
G1 X89.9226 Y39.3149
G1 X109.4401 Y58.8323
G1 X109.4357 Y58.8552
G1 X109.4243 Y58.9317
G1 X109.4227 Y58.9453
G1 X109.4216 Y58.9590
G1 X109.4179 Y59.0362
G1 X109.4176 Y59.0568
G1 X109.4216 Y59.1408
G1 X109.4227 Y59.1545
G1 X109.4243 Y59.1682
G1 X109.4357 Y59.2446
G1 X109.4380 Y59.2582
G1 X109.4410 Y59.2716
G1 X109.4598 Y59.3465
G1 X109.4635 Y59.3598
G1 X109.4678 Y59.3728
G1 X109.4938 Y59.4456
G1 X109.4988 Y59.4584
G1 X109.5043 Y59.4710
G1 X109.5404 Y59.5470
G1 X109.5503 Y59.5650
G1 X109.5901 Y59.6313
G1 X109.5974 Y59.6429
G1 X109.6053 Y59.6542
G1 X109.6514 Y59.7162
G1 X109.6598 Y59.7271
G1 X109.6688 Y59.7375
G1 X109.7207 Y59.7947
G1 X109.7351 Y59.8095
G1 X109.7974 Y59.8661
G1 X109.8078 Y59.8750
G1 X109.8186 Y59.8835
G1 X109.8862 Y59.9335
G1 X109.9035 Y59.9448
G1 X109.9757 Y59.9880
G1 X109.9878 Y59.9944
G1 X110.0134 Y60.0066
G1 X108.4164 Y60.0066
G1 X108.4420 Y59.9944
G1 X108.4541 Y59.9880
G1 X108.5322 Y59.9412
G1 X108.5492 Y59.9295
G1 X108.6167 Y59.8793
G1 X108.6325 Y59.8661
G1 X108.6897 Y59.8142
G1 X108.6997 Y59.8047
G1 X108.7092 Y59.7947
G1 X108.7611 Y59.7375
G1 X108.7743 Y59.7217
G1 X108.8245 Y59.6542
G1 X108.8324 Y59.6429
G1 X108.8398 Y59.6313
G1 X108.8795 Y59.5650
G1 X108.8863 Y59.5531
G1 X108.8925 Y59.5408
G1 X108.9255 Y59.4710
G1 X108.9311 Y59.4584
G1 X108.9360 Y59.4456
G1 X108.9620 Y59.3728
G1 X108.9664 Y59.3598
G1 X108.9700 Y59.3465
G1 X108.9888 Y59.2716
G1 X108.9931 Y59.2514
G1 X109.0055 Y59.1682
G1 X109.0072 Y59.1545
G1 X109.0082 Y59.1408
G1 X109.0120 Y59.0637
G1 X109.0123 Y59.0499
G1 X109.0120 Y59.0362
G1 X109.0082 Y58.9590
G1 X109.0072 Y58.9453
G1 X109.0055 Y58.9317
G1 X108.9942 Y58.8552
G1 X108.9918 Y58.8417
G1 X108.9888 Y58.8283
G1 X108.9700 Y58.7533
G1 X108.9664 Y58.7401
G1 X108.9620 Y58.7270
G1 X108.9360 Y58.6543
G1 X108.9311 Y58.6414
G1 X108.9255 Y58.6289
G1 X108.8925 Y58.5590
G1 X108.8863 Y58.5467
G1 X108.8795 Y58.5348
G1 X108.8398 Y58.4685
G1 X108.8324 Y58.4569
G1 X108.8245 Y58.4457
G1 X108.7785 Y58.3836
G1 X108.7700 Y58.3728
G1 X108.7611 Y58.3624
G1 X108.7045 Y58.3001
G1 X108.6897 Y58.2857
G1 X108.6325 Y58.2338
G1 X108.6221 Y58.2248
G1 X108.6112 Y58.2164
G1 X108.5492 Y58.1703
G1 X108.5379 Y58.1624
G1 X108.5263 Y58.1551
G1 X108.4600 Y58.1153
G1 X108.4481 Y58.1086
G1 X108.4358 Y58.1024
G1 X108.3660 Y58.0693
G1 X108.3534 Y58.0638
G1 X108.3406 Y58.0588
G1 X108.2678 Y58.0328
G1 X108.2548 Y58.0285
G1 X108.2415 Y58.0248
G1 X108.1666 Y58.0060
G1 X108.1532 Y58.0030
G1 X108.1396 Y58.0007
G1 X108.0632 Y57.9893
G1 X108.0495 Y57.9877
G1 X108.0358 Y57.9866
G1 X107.9587 Y57.9829
G1 X107.9449 Y57.9825
G1 X107.9312 Y57.9829
G1 X107.8540 Y57.9866
G1 X107.8403 Y57.9877
G1 X107.8267 Y57.9893
G1 X107.7502 Y58.0007
G1 X107.7273 Y58.0051
G1 X90.5785 Y40.8563
G1 X90.5686 Y40.8468
G1 X90.5413 Y40.8222
G1 X90.5252 Y40.8093
G1 X90.4899 Y40.7835
G1 X90.4526 Y40.7608
G1 X90.4407 Y40.7540
G1 X90.4284 Y40.7479
G1 X90.3951 Y40.7322
G1 X90.3759 Y40.7245
G1 X90.3347 Y40.7102
G1 X90.2924 Y40.6992
G1 X90.2723 Y40.6949
G1 X90.2291 Y40.6885
G1 X90.2085 Y40.6868
G1 X90.1649 Y40.6850
G1 X74.5030 Y40.6850
G1 X74.4600 Y40.6270
G1 X74.4516 Y40.6161
G1 X74.4426 Y40.6057
G1 X74.3931 Y40.5511
G1 X74.3787 Y40.5364
G1 X74.3191 Y40.4823
G1 X74.3087 Y40.4733
G1 X74.2979 Y40.4648
G1 X74.2387 Y40.4209
G1 X74.2275 Y40.4130
G1 X74.2159 Y40.4057
G1 X74.1527 Y40.3678
G1 X74.1407 Y40.3610
G1 X74.1284 Y40.3549
G1 X74.0619 Y40.3234
G1 X74.0493 Y40.3178
G1 X74.0365 Y40.3129
G1 X73.9671 Y40.2880
G1 X73.9541 Y40.2837
G1 X73.9408 Y40.2801
G1 X73.8694 Y40.2622
G1 X73.8560 Y40.2592
G1 X73.8424 Y40.2568
G1 X73.7696 Y40.2460
G1 X73.7559 Y40.2443
G1 X73.7422 Y40.2433
G1 X73.6687 Y40.2397
G1 X73.6549 Y40.2394
G1 X73.6412 Y40.2397
G1 X73.5676 Y40.2433
G1 X73.5539 Y40.2443
G1 X73.5403 Y40.2460
G1 X73.4674 Y40.2568
G1 X73.4539 Y40.2592
G1 X73.4405 Y40.2622
G1 X73.3690 Y40.2801
G1 X73.3558 Y40.2837
G1 X73.3427 Y40.2880
G1 X73.2734 Y40.3129
G1 X73.2605 Y40.3178
G1 X73.2480 Y40.3234
G1 X73.1814 Y40.3549
G1 X73.1691 Y40.3610
G1 X73.1572 Y40.3678
G1 X73.0940 Y40.4057
G1 X73.0824 Y40.4130
G1 X73.0711 Y40.4209
G1 X73.0120 Y40.4648
G1 X73.0011 Y40.4733
G1 X72.9907 Y40.4823
G1 X72.9361 Y40.5317
G1 X72.9262 Y40.5412
G1 X72.9167 Y40.5511
G1 X72.8673 Y40.6057
G1 X72.8583 Y40.6161
G1 X72.8498 Y40.6270
G1 X72.8059 Y40.6861
G1 X72.7980 Y40.6974
G1 X72.7907 Y40.7090
G1 X72.7528 Y40.7722
G1 X72.7460 Y40.7841
G1 X72.7399 Y40.7964
G1 X72.7084 Y40.8630
G1 X72.7028 Y40.8755
G1 X72.6979 Y40.8884
G1 X72.6730 Y40.9577
G1 X72.6687 Y40.9708
G1 X72.6651 Y40.9840
G1 X72.6472 Y41.0555
G1 X72.6442 Y41.0689
G1 X72.6418 Y41.0824
G1 X72.6310 Y41.1553
G1 X72.6293 Y41.1689
G1 X72.6283 Y41.1826
G1 X72.6247 Y41.2562
G1 X72.6244 Y41.2699
G1 X72.6247 Y41.2837
G1 X72.6283 Y41.3572
G1 X72.6293 Y41.3709
G1 X72.6310 Y41.3846
G1 X72.6429 Y41.4642
G1 X72.6472 Y41.4844
G1 X72.6651 Y41.5558
G1 X72.6687 Y41.5691
G1 X72.6730 Y41.5821
G1 X72.6979 Y41.6515
G1 X72.7028 Y41.6643
G1 X72.7084 Y41.6769
G1 X72.7429 Y41.7496
G1 X72.7528 Y41.7677
G1 X72.7907 Y41.8309
G1 X72.8019 Y41.8481
G1 X72.8498 Y41.9129
G1 X72.8583 Y41.9237
G1 X72.8673 Y41.9341
G1 X72.9167 Y41.9887
G1 X72.9262 Y41.9986
G1 X72.9361 Y42.0081
G1 X72.9907 Y42.0576
G1 X73.0011 Y42.0666
G1 X73.0120 Y42.0750
G1 X73.0711 Y42.1189
G1 X73.0824 Y42.1268
G1 X73.0940 Y42.1342
G1 X73.1572 Y42.1720
G1 X73.1691 Y42.1788
G1 X73.1814 Y42.1850
G1 X73.2480 Y42.2165
G1 X73.2605 Y42.2220
G1 X73.2734 Y42.2270
G1 X73.3427 Y42.2518
G1 X73.3558 Y42.2561
G1 X73.3690 Y42.2598
G1 X73.4405 Y42.2777
G1 X73.4539 Y42.2807
G1 X73.4674 Y42.2830
G1 X73.5403 Y42.2938
G1 X73.5539 Y42.2955
G1 X73.5676 Y42.2965
G1 X73.6412 Y42.3001
G1 X73.6549 Y42.3005
G1 X73.6687 Y42.3001
G1 X73.7422 Y42.2965
G1 X73.7559 Y42.2955
G1 X73.7696 Y42.2938
G1 X73.8424 Y42.2830
G1 X73.8560 Y42.2807
G1 X73.8694 Y42.2777
G1 X73.9408 Y42.2598
G1 X73.9541 Y42.2561
G1 X73.9671 Y42.2518
G1 X74.0365 Y42.2270
G1 X74.0493 Y42.2220
G1 X74.0619 Y42.2165
G1 X74.1284 Y42.1850
G1 X74.1407 Y42.1788
G1 X74.1527 Y42.1720
G1 X74.2159 Y42.1342
G1 X74.2275 Y42.1268
G1 X74.2387 Y42.1189
G1 X74.2979 Y42.0750
G1 X74.3087 Y42.0666
G1 X74.3191 Y42.0576
G1 X74.3737 Y42.0081
G1 X74.3836 Y41.9986
G1 X74.3931 Y41.9887
G1 X74.4426 Y41.9341
G1 X74.4516 Y41.9237
G1 X74.4600 Y41.9129
G1 X74.5030 Y41.8549
G1 X89.9226 Y41.8549
G1 X106.0503 Y57.9825
G1 X104.6175 Y57.9825
G1 X104.5969 Y57.9833
G1 X104.5832 Y57.9846
G1 X104.5697 Y57.9866
G1 X104.5495 Y57.9909
G1 X104.5362 Y57.9946
G1 X104.5232 Y57.9989
G1 X104.5104 Y58.0038
G1 X104.4978 Y58.0094
G1 X104.4855 Y58.0156
G1 X104.4736 Y58.0224
G1 X104.4620 Y58.0297
G1 X104.4507 Y58.0376
G1 X104.4399 Y58.0461
G1 X104.4295 Y58.0551
G1 X104.4195 Y58.0645
G1 X104.4101 Y58.0745
G1 X104.4011 Y58.0849
G1 X104.3926 Y58.0957
G1 X104.3847 Y58.1070
G1 X104.3739 Y58.1245
G1 X104.3644 Y58.1428
G1 X104.3588 Y58.1554
G1 X104.3539 Y58.1682
G1 X104.3477 Y58.1878
G1 X104.3443 Y58.2012
G1 X104.3416 Y58.2147
G1 X104.3389 Y58.2351
G1 X104.3379 Y58.2488
G1 X104.3375 Y58.2625
G1 X104.3376 Y59.8442
G1 X104.3389 Y59.8648
G1 X104.3416 Y59.8852
G1 X104.3459 Y59.9053
G1 X104.3496 Y59.9186
G1 X104.3539 Y59.9316
G1 X104.3615 Y59.9508
G1 X104.3706 Y59.9693
G1 X104.3810 Y59.9871
G1 X104.3886 Y59.9985
G1 X104.3945 Y60.0066
G1 X94.1503 Y60.0066
G1 X94.1503 Y59.7070
G1 X94.1500 Y59.6933
G1 X94.1475 Y59.6435
G1 X94.1465 Y59.6298
G1 X94.1448 Y59.6161
G1 X94.1375 Y59.5668
G1 X94.1351 Y59.5532
G1 X94.1321 Y59.5398
G1 X94.1200 Y59.4914
G1 X94.1163 Y59.4782
G1 X94.1120 Y59.4651
G1 X94.0952 Y59.4182
G1 X94.0903 Y59.4054
G1 X94.0847 Y59.3928
G1 X94.0634 Y59.3477
G1 X94.0572 Y59.3354
G1 X94.0504 Y59.3235
G1 X94.0248 Y59.2807
G1 X94.0174 Y59.2691
G1 X94.0095 Y59.2578
G1 X93.9757 Y59.2123
G1 X93.9624 Y59.1965
G1 X93.9242 Y59.1545
G1 X93.7702 Y59.0004
G1 X93.7682 Y58.9590
G1 X93.7664 Y58.9385
G1 X93.7542 Y58.8552
G1 X93.7504 Y58.8350
G1 X93.7300 Y58.7533
G1 X93.7264 Y58.7401
G1 X93.7220 Y58.7270
G1 X93.6960 Y58.6543
G1 X93.6884 Y58.6351
G1 X93.6525 Y58.5590
G1 X93.6463 Y58.5467
G1 X93.6395 Y58.5348
G1 X93.5998 Y58.4685
G1 X93.5924 Y58.4569
G1 X93.5845 Y58.4457
G1 X93.5385 Y58.3836
G1 X93.5300 Y58.3728
G1 X93.5211 Y58.3624
G1 X93.4645 Y58.3001
G1 X93.4497 Y58.2857
G1 X93.3925 Y58.2338
G1 X93.3821 Y58.2248
G1 X93.3712 Y58.2164
G1 X93.3092 Y58.1703
G1 X93.2979 Y58.1624
G1 X93.2863 Y58.1551
G1 X93.2200 Y58.1153
G1 X93.2081 Y58.1086
G1 X93.1958 Y58.1024
G1 X93.1260 Y58.0693
G1 X93.1134 Y58.0638
G1 X93.1006 Y58.0588
G1 X93.0278 Y58.0328
G1 X93.0148 Y58.0285
G1 X93.0015 Y58.0248
G1 X92.9266 Y58.0060
G1 X92.9132 Y58.0030
G1 X92.8996 Y58.0007
G1 X92.8232 Y57.9893
G1 X92.8095 Y57.9877
G1 X92.7958 Y57.9866
G1 X92.7187 Y57.9829
G1 X92.7049 Y57.9825
G1 X92.6912 Y57.9829
G1 X92.6140 Y57.9866
G1 X92.6003 Y57.9877
G1 X92.5867 Y57.9893
G1 X92.5102 Y58.0007
G1 X92.4967 Y58.0030
G1 X92.4833 Y58.0060
G1 X92.4083 Y58.0248
G1 X92.3951 Y58.0285
G1 X92.3820 Y58.0328
G1 X92.3093 Y58.0588
G1 X92.2964 Y58.0638
G1 X92.2839 Y58.0693
G1 X92.2140 Y58.1024
G1 X92.2017 Y58.1086
G1 X92.1898 Y58.1153
G1 X92.1235 Y58.1551
G1 X92.1119 Y58.1624
G1 X92.1007 Y58.1703
G1 X92.0331 Y58.2205
G1 X92.0174 Y58.2338
G1 X91.9601 Y58.2857
G1 X91.9502 Y58.2952
G1 X91.9407 Y58.3051
G1 X91.8888 Y58.3624
G1 X91.8798 Y58.3728
G1 X91.8714 Y58.3836
G1 X91.8253 Y58.4457
G1 X91.8174 Y58.4569
G1 X91.8101 Y58.4685
G1 X91.7703 Y58.5348
G1 X91.7604 Y58.5528
G1 X91.7243 Y58.6289
G1 X91.7188 Y58.6414
G1 X91.7138 Y58.6543
G1 X91.6878 Y58.7270
G1 X91.6835 Y58.7401
G1 X91.6798 Y58.7533
G1 X91.6610 Y58.8283
G1 X91.6580 Y58.8417
G1 X91.6557 Y58.8552
G1 X91.6443 Y58.9317
G1 X91.6427 Y58.9453
G1 X91.6416 Y58.9590
G1 X91.6379 Y59.0362
G1 X91.6375 Y59.0499
G1 X91.6379 Y59.0637
G1 X91.6416 Y59.1408
G1 X91.6434 Y59.1614
G1 X91.6557 Y59.2446
G1 X91.6580 Y59.2582
G1 X91.6610 Y59.2716
G1 X91.6798 Y59.3465
G1 X91.6835 Y59.3598
G1 X91.6878 Y59.3728
G1 X91.7138 Y59.4456
G1 X91.7188 Y59.4584
G1 X91.7243 Y59.4710
G1 X91.7574 Y59.5408
G1 X91.7669 Y59.5591
G1 X91.8101 Y59.6313
G1 X91.8174 Y59.6429
G1 X91.8253 Y59.6542
G1 X91.8714 Y59.7162
G1 X91.8798 Y59.7271
G1 X91.8888 Y59.7375
G1 X91.9407 Y59.7947
G1 X91.9502 Y59.8047
G1 X91.9601 Y59.8142
G1 X92.0174 Y59.8661
G1 X92.0278 Y59.8750
G1 X92.0386 Y59.8835
G1 X92.1007 Y59.9295
G1 X92.1119 Y59.9374
G1 X92.1235 Y59.9448
G1 X92.1957 Y59.9880
G1 X92.2140 Y59.9975
G1 X92.2839 Y60.0305
G1 X92.2964 Y60.0361
G1 X92.3093 Y60.0410
G1 X92.3820 Y60.0670
G1 X92.3951 Y60.0714
G1 X92.4083 Y60.0750
G1 X92.4833 Y60.0938
G1 X92.4967 Y60.0968
G1 X92.5102 Y60.0992
G1 X92.5738 Y60.1086
G1 X92.5738 Y60.4684
G1 X87.1605 Y65.8817
G1 X78.1832 Y65.8817
G1 X78.1525 Y65.8538
G1 X78.1367 Y65.8405
G1 X78.0692 Y65.7903
G1 X78.0522 Y65.7787
G1 X77.9800 Y65.7353
G1 X77.9681 Y65.7286
G1 X77.9558 Y65.7224
G1 X77.8860 Y65.6893
G1 X77.8670 Y65.6812
G1 X77.7878 Y65.6528
G1 X77.7748 Y65.6485
G1 X77.7615 Y65.6448
G1 X77.6866 Y65.6260
G1 X77.6732 Y65.6230
G1 X77.6596 Y65.6207
G1 X77.5832 Y65.6093
G1 X77.5695 Y65.6077
G1 X77.5558 Y65.6066
G1 X77.4787 Y65.6029
G1 X77.4649 Y65.6025
G1 X77.4512 Y65.6029
G1 X77.3740 Y65.6066
G1 X77.3603 Y65.6077
G1 X77.3467 Y65.6093
G1 X77.2702 Y65.6207
G1 X77.2567 Y65.6230
G1 X77.2433 Y65.6260
G1 X77.1683 Y65.6448
G1 X77.1551 Y65.6485
G1 X77.1420 Y65.6528
G1 X77.0628 Y65.6812
G1 X77.0439 Y65.6893
G1 X76.9740 Y65.7224
G1 X76.9617 Y65.7286
G1 X76.9498 Y65.7353
G1 X76.8777 Y65.7787
G1 X76.8607 Y65.7903
G1 X76.7931 Y65.8405
G1 X76.7774 Y65.8538
G1 X76.7466 Y65.8817
G1 X75.6432 Y65.8817
G1 X75.6125 Y65.8538
G1 X75.5967 Y65.8405
G1 X75.5292 Y65.7903
G1 X75.5122 Y65.7787
G1 X75.4400 Y65.7353
G1 X75.4281 Y65.7286
G1 X75.4158 Y65.7224
G1 X75.3460 Y65.6893
G1 X75.3270 Y65.6812
G1 X75.2478 Y65.6528
G1 X75.2348 Y65.6485
G1 X75.2215 Y65.6448
G1 X75.1466 Y65.6260
G1 X75.1332 Y65.6230
G1 X75.1196 Y65.6207
G1 X75.0432 Y65.6093
G1 X75.0295 Y65.6077
G1 X75.0158 Y65.6066
G1 X74.9387 Y65.6029
G1 X74.9249 Y65.6025
G1 X74.9112 Y65.6029
G1 X74.8340 Y65.6066
G1 X74.8203 Y65.6077
G1 X74.8067 Y65.6093
G1 X74.7302 Y65.6207
G1 X74.7167 Y65.6230
G1 X74.7033 Y65.6260
G1 X74.6283 Y65.6448
G1 X74.6151 Y65.6485
G1 X74.6020 Y65.6528
G1 X74.5228 Y65.6812
G1 X74.5039 Y65.6893
G1 X74.4340 Y65.7224
G1 X74.4217 Y65.7286
G1 X74.4098 Y65.7353
G1 X74.3377 Y65.7787
G1 X74.3207 Y65.7903
G1 X74.2531 Y65.8405
G1 X74.2374 Y65.8538
G1 X74.2066 Y65.8817
G1 X73.1032 Y65.8817
G1 X73.0725 Y65.8538
G1 X73.0567 Y65.8405
G1 X72.9892 Y65.7903
G1 X72.9722 Y65.7787
G1 X72.9000 Y65.7353
G1 X72.8881 Y65.7286
G1 X72.8758 Y65.7224
G1 X72.8060 Y65.6893
G1 X72.7870 Y65.6812
G1 X72.7078 Y65.6528
G1 X72.6948 Y65.6485
G1 X72.6815 Y65.6448
G1 X72.6066 Y65.6260
G1 X72.5932 Y65.6230
G1 X72.5796 Y65.6207
G1 X72.5032 Y65.6093
G1 X72.4895 Y65.6077
G1 X72.4758 Y65.6066
G1 X72.3987 Y65.6029
G1 X72.3849 Y65.6025
G1 X72.3712 Y65.6029
G1 X72.2940 Y65.6066
G1 X72.2803 Y65.6077
G1 X72.2667 Y65.6093
G1 X72.1902 Y65.6207
G1 X72.1767 Y65.6230
G1 X72.1633 Y65.6260
G1 X72.0883 Y65.6448
G1 X72.0751 Y65.6485
G1 X72.0620 Y65.6528
G1 X71.9828 Y65.6812
G1 X71.9639 Y65.6893
G1 X71.8940 Y65.7224
G1 X71.8817 Y65.7286
G1 X71.8698 Y65.7353
G1 X71.7977 Y65.7787
G1 X71.7807 Y65.7903
G1 X71.7131 Y65.8405
G1 X71.6974 Y65.8538
G1 X71.6666 Y65.8817
G1 X70.5632 Y65.8817
G1 X70.5325 Y65.8538
G1 X70.5167 Y65.8405
G1 X70.4492 Y65.7903
G1 X70.4322 Y65.7787
G1 X70.3600 Y65.7353
G1 X70.3481 Y65.7286
G1 X70.3358 Y65.7224
G1 X70.2660 Y65.6893
G1 X70.2470 Y65.6812
G1 X70.1678 Y65.6528
G1 X70.1548 Y65.6485
G1 X70.1415 Y65.6448
G1 X70.0666 Y65.6260
G1 X70.0532 Y65.6230
G1 X70.0396 Y65.6207
G1 X69.9632 Y65.6093
G1 X69.9495 Y65.6077
G1 X69.9358 Y65.6066
G1 X69.8587 Y65.6029
G1 X69.8449 Y65.6025
G1 X69.8312 Y65.6029
G1 X69.7540 Y65.6066
G1 X69.7403 Y65.6077
G1 X69.7267 Y65.6093
G1 X69.6502 Y65.6207
G1 X69.6367 Y65.6230
G1 X69.6233 Y65.6260
G1 X69.5483 Y65.6448
G1 X69.5351 Y65.6485
G1 X69.5220 Y65.6528
G1 X69.4428 Y65.6812
G1 X69.4239 Y65.6893
G1 X69.3540 Y65.7224
G1 X69.3417 Y65.7286
G1 X69.3298 Y65.7353
G1 X69.2577 Y65.7787
G1 X69.2407 Y65.7903
G1 X69.1731 Y65.8405
G1 X69.1574 Y65.8538
G1 X69.1266 Y65.8817
G1 X50.3337 Y65.8817
G1 X50.3237 Y65.8712
G1 X50.3132 Y65.8612
G1 X50.3131 Y62.8530
G1 X50.3104 Y62.7964
G1 X50.3094 Y62.7827
G1 X50.3077 Y62.7690
G1 X50.3004 Y62.7197
G1 X50.2980 Y62.7061
G1 X50.2950 Y62.6927
G1 X50.2829 Y62.6443
G1 X50.2792 Y62.6311
G1 X50.2749 Y62.6181
G1 X50.2581 Y62.5711
G1 X50.2505 Y62.5520
G1 X50.2263 Y62.5006
G1 X50.2201 Y62.4883
G1 X50.2133 Y62.4764
G1 X50.1877 Y62.4336
G1 X50.1803 Y62.4220
G1 X50.1724 Y62.4108
G1 X50.1427 Y62.3707
G1 X50.1342 Y62.3599
G1 X50.1253 Y62.3494
G1 X50.0918 Y62.3125
G1 X50.0823 Y62.3025
G1 X49.2815 Y61.5017
G1 X49.2805 Y61.4889
G1 X49.2788 Y61.4753
G1 X49.2669 Y61.3956
G1 X49.2627 Y61.3755
G1 X49.2448 Y61.3040
G1 X49.2390 Y61.2842
G1 X49.2120 Y61.2084
G1 X49.2070 Y61.1955
G1 X49.2015 Y61.1830
G1 X49.1700 Y61.1164
G1 X49.1638 Y61.1041
G1 X49.1570 Y61.0922
G1 X49.1192 Y61.0290
G1 X49.1118 Y61.0174
G1 X49.1039 Y61.0061
G1 X49.0600 Y60.9470
G1 X49.0516 Y60.9361
G1 X49.0426 Y60.9257
G1 X48.9931 Y60.8711
G1 X48.9836 Y60.8612
G1 X48.9737 Y60.8517
G1 X48.9191 Y60.8023
G1 X48.9087 Y60.7933
G1 X48.8979 Y60.7848
G1 X48.8387 Y60.7409
G1 X48.8275 Y60.7330
G1 X48.8159 Y60.7257
G1 X48.7527 Y60.6878
G1 X48.7407 Y60.6810
G1 X48.7284 Y60.6749
G1 X48.6619 Y60.6434
G1 X48.6493 Y60.6378
G1 X48.6365 Y60.6329
G1 X48.5606 Y60.6058
G1 X48.5408 Y60.6001
G1 X48.4694 Y60.5822
G1 X48.4492 Y60.5779
G1 X48.3696 Y60.5660
G1 X48.3559 Y60.5643
G1 X48.3431 Y60.5634
G1 X48.0122 Y60.2324
G1 X48.0023 Y60.2230
G1 X47.9602 Y60.1849
G1 X47.9441 Y60.1720
G1 X47.9040 Y60.1423
G1 X47.8928 Y60.1344
G1 X47.8812 Y60.1270
G1 X47.8384 Y60.1014
G1 X47.8264 Y60.0946
G1 X47.8142 Y60.0884
G1 X47.7691 Y60.0671
G1 X47.7501 Y60.0590
G1 X47.6967 Y60.0398
G1 X47.6837 Y60.0355
G1 X47.6704 Y60.0318
G1 X47.6220 Y60.0197
G1 X47.6086 Y60.0167
G1 X47.5951 Y60.0143
G1 X47.5457 Y60.0070
G1 X47.5321 Y60.0053
G1 X47.5184 Y60.0043
G1 X47.4686 Y60.0019
G1 X47.4548 Y60.0015
G1 X37.6132 Y60.0015
G1 X37.6132 Y59.7682
G1 X37.6411 Y59.7375
G1 X37.6543 Y59.7217
G1 X37.7045 Y59.6542
G1 X37.7162 Y59.6372
G1 X37.7595 Y59.5650
G1 X37.7663 Y59.5531
G1 X37.7725 Y59.5408
G1 X37.8084 Y59.4647
G1 X37.8160 Y59.4456
G1 X37.8420 Y59.3728
G1 X37.8464 Y59.3598
G1 X37.8500 Y59.3465
G1 X37.8688 Y59.2716
G1 X37.8718 Y59.2582
G1 X37.8742 Y59.2446
G1 X37.8855 Y59.1682
G1 X37.8872 Y59.1545
G1 X37.8882 Y59.1408
G1 X37.8920 Y59.0637
G1 X37.8923 Y59.0499
G1 X37.8920 Y59.0362
G1 X37.8882 Y58.9590
G1 X37.8872 Y58.9453
G1 X37.8855 Y58.9317
G1 X37.8742 Y58.8552
G1 X37.8718 Y58.8417
G1 X37.8688 Y58.8283
G1 X37.8500 Y58.7533
G1 X37.8464 Y58.7401
G1 X37.8420 Y58.7270
G1 X37.8136 Y58.6478
G1 X37.8055 Y58.6289
G1 X37.7725 Y58.5590
G1 X37.7663 Y58.5467
G1 X37.7595 Y58.5348
G1 X37.7198 Y58.4685
G1 X37.7124 Y58.4569
G1 X37.7045 Y58.4457
G1 X37.6585 Y58.3836
G1 X37.6500 Y58.3728
G1 X37.6411 Y58.3624
G1 X37.5892 Y58.3051
G1 X37.5797 Y58.2952
G1 X37.5697 Y58.2857
G1 X37.5125 Y58.2338
G1 X37.5021 Y58.2248
G1 X37.4912 Y58.2164
G1 X37.4292 Y58.1703
G1 X37.4179 Y58.1624
G1 X37.4063 Y58.1551
G1 X37.3400 Y58.1153
G1 X37.3281 Y58.1086
G1 X37.3158 Y58.1024
G1 X37.2460 Y58.0693
G1 X37.2334 Y58.0638
G1 X37.2206 Y58.0588
G1 X37.1478 Y58.0328
G1 X37.1348 Y58.0285
G1 X37.1215 Y58.0248
G1 X37.0466 Y58.0060
G1 X37.0332 Y58.0030
G1 X37.0196 Y58.0007
G1 X36.9432 Y57.9893
G1 X36.9295 Y57.9877
G1 X36.9158 Y57.9866
G1 X36.8387 Y57.9829
G1 X36.8249 Y57.9825
G1 X36.8112 Y57.9829
G1 X36.7340 Y57.9866
G1 X36.7203 Y57.9877
G1 X36.7067 Y57.9893
G1 X36.6302 Y58.0007
G1 X36.6167 Y58.0030
G1 X36.6033 Y58.0060
G1 X36.5283 Y58.0248
G1 X36.5151 Y58.0285
G1 X36.5020 Y58.0328
G1 X36.4293 Y58.0588
G1 X36.4164 Y58.0638
G1 X36.4039 Y58.0693
G1 X36.3340 Y58.1024
G1 X36.3217 Y58.1086
G1 X36.3098 Y58.1153
G1 X36.2435 Y58.1551
G1 X36.2319 Y58.1624
G1 X36.2207 Y58.1703
G1 X36.1586 Y58.2164
G1 X36.1478 Y58.2248
G1 X36.1374 Y58.2338
G1 X36.0801 Y58.2857
G1 X36.0702 Y58.2952
G1 X36.0607 Y58.3051
G1 X36.0088 Y58.3624
G1 X35.9998 Y58.3728
G1 X35.9914 Y58.3836
G1 X35.9453 Y58.4457
G1 X35.9374 Y58.4569
G1 X35.9301 Y58.4685
G1 X35.8903 Y58.5348
G1 X35.8836 Y58.5467
G1 X35.8774 Y58.5590
G1 X35.8443 Y58.6289
G1 X35.8362 Y58.6478
G1 X35.8078 Y58.7270
G1 X35.8035 Y58.7401
G1 X35.7998 Y58.7533
G1 X35.7810 Y58.8283
G1 X35.7780 Y58.8417
G1 X35.7757 Y58.8552
G1 X35.7643 Y58.9317
G1 X35.7627 Y58.9453
G1 X35.7616 Y58.9590
G1 X35.7579 Y59.0362
G1 X35.7575 Y59.0499
G1 X35.7579 Y59.0637
G1 X35.7616 Y59.1408
G1 X35.7627 Y59.1545
G1 X35.7643 Y59.1682
G1 X35.7757 Y59.2446
G1 X35.7780 Y59.2582
G1 X35.7810 Y59.2716
G1 X35.7998 Y59.3465
G1 X35.8035 Y59.3598
G1 X35.8078 Y59.3728
G1 X35.8338 Y59.4456
G1 X35.8415 Y59.4647
G1 X35.8774 Y59.5408
G1 X35.8836 Y59.5531
G1 X35.8903 Y59.5650
G1 X35.9337 Y59.6372
G1 X35.9453 Y59.6542
G1 X35.9955 Y59.7217
G1 X36.0088 Y59.7375
G1 X36.0367 Y59.7682
G1 X36.0367 Y60.0015
G1 X34.7672 Y60.0015
G1 X34.7820 Y59.9944
G1 X34.8000 Y59.9845
G1 X34.8663 Y59.9448
G1 X34.8836 Y59.9335
G1 X34.9512 Y59.8835
G1 X34.9621 Y59.8750
G1 X34.9725 Y59.8661
G1 X35.0297 Y59.8142
G1 X35.0397 Y59.8047
G1 X35.0492 Y59.7947
G1 X35.1011 Y59.7375
G1 X35.1100 Y59.7271
G1 X35.1185 Y59.7162
G1 X35.1645 Y59.6542
G1 X35.1724 Y59.6429
G1 X35.1798 Y59.6313
G1 X35.2230 Y59.5591
G1 X35.2325 Y59.5408
G1 X35.2655 Y59.4710
G1 X35.2711 Y59.4584
G1 X35.2760 Y59.4456
G1 X35.3020 Y59.3728
G1 X35.3064 Y59.3598
G1 X35.3100 Y59.3465
G1 X35.3288 Y59.2716
G1 X35.3318 Y59.2582
G1 X35.3342 Y59.2446
G1 X35.3455 Y59.1682
G1 X35.3472 Y59.1545
G1 X35.3482 Y59.1408
G1 X35.3522 Y59.0568
G1 X35.3520 Y59.0362
G1 X35.3482 Y58.9590
G1 X35.3472 Y58.9453
G1 X35.3455 Y58.9317
G1 X35.3342 Y58.8552
G1 X35.3298 Y58.8323
G1 X36.3149 Y57.8472
G1 X72.7657 Y57.8472
G1 X72.8093 Y57.8454
G1 X72.8298 Y57.8436
G1 X72.8730 Y57.8372
G1 X72.8932 Y57.8330
G1 X72.9355 Y57.8220
G1 X72.9767 Y57.8076
G1 X72.9958 Y57.8000
G1 X73.0291 Y57.7843
G1 X73.0414 Y57.7781
G1 X73.0534 Y57.7714
G1 X73.0849 Y57.7524
G1 X73.1019 Y57.7407
G1 X73.1367 Y57.7144
G1 X73.1472 Y57.7055
G1 X73.1744 Y57.6807
G1 X75.7752 Y55.0800
G1 X75.7847 Y55.0701
G1 X75.8137 Y55.0375
G1 X75.8222 Y55.0266
G1 X75.8440 Y54.9970
G1 X75.8517 Y54.9856
G1 X75.8707 Y54.9541
G1 X75.8774 Y54.9421
G1 X75.8836 Y54.9299
G1 X75.9020 Y54.8902
G1 X75.9069 Y54.8774
G1 X75.9213 Y54.8362
G1 X75.9323 Y54.7939
G1 X75.9353 Y54.7805
G1 X75.9376 Y54.7670
G1 X75.9437 Y54.7237
G1 X75.9447 Y54.7100
G1 X75.9465 Y54.6664
G1 X75.9464 Y53.1297
G1 X75.9443 Y53.0861
G1 X75.9420 Y53.0656
G1 X75.9353 Y53.0224
G1 X75.9250 Y52.9800
G1 X75.9193 Y52.9602
G1 X75.9045 Y52.9191
G1 X75.8964 Y52.9001
G1 X75.8774 Y52.8608
G1 X75.8707 Y52.8488
G1 X75.8517 Y52.8173
G1 X75.8400 Y52.8003
G1 X75.8137 Y52.7655
G1 X75.8048 Y52.7550
G1 X75.7800 Y52.7278
G1 X74.6682 Y51.6160
G1 X74.6788 Y51.5446
G1 X74.6805 Y51.5309
G1 X74.6815 Y51.5172
G1 X74.6851 Y51.4437
G1 X74.6854 Y51.4230
G1 X74.6815 Y51.3426
G1 X74.6805 Y51.3289
G1 X74.6788 Y51.3153
G1 X74.6680 Y51.2424
G1 X74.6657 Y51.2289
G1 X74.6627 Y51.2155
G1 X74.6430 Y51.1374
G1 X74.6368 Y51.1177
G1 X74.6120 Y51.0484
G1 X74.6070 Y51.0355
G1 X74.6015 Y51.0230
G1 X74.5700 Y50.9564
G1 X74.5638 Y50.9441
G1 X74.5570 Y50.9322
G1 X74.5192 Y50.8690
G1 X74.5118 Y50.8574
G1 X74.5039 Y50.8461
G1 X74.4600 Y50.7870
G1 X74.4516 Y50.7761
G1 X74.4426 Y50.7657
G1 X74.3931 Y50.7111
G1 X74.3787 Y50.6964
G1 X74.3191 Y50.6423
G1 X74.3087 Y50.6333
G1 X74.2979 Y50.6248
G1 X74.2331 Y50.5769
G1 X74.2159 Y50.5657
G1 X74.1527 Y50.5278
G1 X74.1407 Y50.5210
G1 X74.1284 Y50.5149
G1 X74.0619 Y50.4834
G1 X74.0493 Y50.4778
G1 X74.0365 Y50.4729
G1 X73.9671 Y50.4480
G1 X73.9541 Y50.4437
G1 X73.9408 Y50.4401
G1 X73.8694 Y50.4222
G1 X73.8560 Y50.4192
G1 X73.8424 Y50.4168
G1 X73.7696 Y50.4060
G1 X73.7559 Y50.4043
G1 X73.7422 Y50.4033
G1 X73.6687 Y50.3997
G1 X73.6549 Y50.3994
G1 X73.6412 Y50.3997
G1 X73.5676 Y50.4033
G1 X73.5539 Y50.4043
G1 X73.5403 Y50.4060
G1 X73.4674 Y50.4168
G1 X73.4539 Y50.4192
G1 X73.4405 Y50.4222
G1 X73.3690 Y50.4401
G1 X73.3558 Y50.4437
G1 X73.3427 Y50.4480
G1 X73.2734 Y50.4729
G1 X73.2542 Y50.4805
G1 X73.1814 Y50.5149
G1 X73.1691 Y50.5210
G1 X73.1572 Y50.5278
G1 X73.0940 Y50.5657
G1 X73.0824 Y50.5730
G1 X73.0711 Y50.5809
G1 X73.0120 Y50.6248
G1 X73.0011 Y50.6333
G1 X72.9907 Y50.6423
G1 X72.9361 Y50.6917
G1 X72.9262 Y50.7012
G1 X72.9167 Y50.7111
G1 X72.8673 Y50.7657
G1 X72.8583 Y50.7761
G1 X72.8498 Y50.7870
G1 X72.8019 Y50.8517
G1 X72.7907 Y50.8690
G1 X72.7528 Y50.9322
G1 X72.7460 Y50.9441
G1 X72.7399 Y50.9564
G1 X72.7084 Y51.0230
G1 X72.7028 Y51.0355
G1 X72.6979 Y51.0484
G1 X72.6730 Y51.1177
G1 X72.6687 Y51.1308
G1 X72.6651 Y51.1440
G1 X72.6472 Y51.2155
G1 X72.6442 Y51.2289
G1 X72.6418 Y51.2424
G1 X72.6310 Y51.3153
G1 X72.6293 Y51.3289
G1 X72.6283 Y51.3426
G1 X72.6247 Y51.4162
G1 X72.6244 Y51.4299
G1 X72.6247 Y51.4437
G1 X72.6283 Y51.5172
G1 X72.6293 Y51.5309
G1 X72.6310 Y51.5446
G1 X72.6418 Y51.6174
G1 X72.6442 Y51.6310
G1 X72.6472 Y51.6444
G1 X72.6668 Y51.7225
G1 X72.6730 Y51.7421
G1 X72.6979 Y51.8115
G1 X72.7028 Y51.8243
G1 X72.7084 Y51.8369
G1 X72.7399 Y51.9034
G1 X72.7460 Y51.9157
G1 X72.7528 Y51.9277
G1 X72.7907 Y51.9909
G1 X72.7980 Y52.0025
G1 X72.8059 Y52.0137
G1 X72.8498 Y52.0729
G1 X72.8583 Y52.0837
G1 X72.8673 Y52.0941
G1 X72.9167 Y52.1487
G1 X72.9262 Y52.1586
G1 X72.9361 Y52.1681
G1 X72.9907 Y52.2176
G1 X73.0065 Y52.2309
G1 X73.0711 Y52.2789
G1 X73.0824 Y52.2868
G1 X73.0940 Y52.2942
G1 X73.1572 Y52.3320
G1 X73.1691 Y52.3388
G1 X73.1814 Y52.3450
G1 X73.2480 Y52.3765
G1 X73.2605 Y52.3820
G1 X73.2734 Y52.3870
G1 X73.3427 Y52.4118
G1 X73.3558 Y52.4161
G1 X73.3690 Y52.4198
G1 X73.4405 Y52.4377
G1 X73.4606 Y52.4419
G1 X73.5403 Y52.4538
G1 X73.5539 Y52.4555
G1 X73.5676 Y52.4565
G1 X73.6480 Y52.4604
G1 X73.6687 Y52.4601
G1 X73.7422 Y52.4565
G1 X73.7559 Y52.4555
G1 X73.7696 Y52.4538
G1 X73.8410 Y52.4432
G1 X74.7766 Y53.3788
G1 X74.7766 Y54.4241
G1 X72.5234 Y56.6773
G1 X36.0726 Y56.6773
G1 X36.0588 Y56.6777
G1 X36.0221 Y56.6795
G1 X36.0084 Y56.6809
G1 X35.9720 Y56.6862
G1 X35.9585 Y56.6886
G1 X35.9450 Y56.6916
G1 X35.9028 Y56.7025
G1 X35.8897 Y56.7068
G1 X35.8487 Y56.7218
G1 X35.8091 Y56.7402
G1 X35.7968 Y56.7464
G1 X35.7592 Y56.7685
G1 X35.7476 Y56.7759
G1 X35.7364 Y56.7838
G1 X35.7068 Y56.8058
G1 X35.6962 Y56.8145
G1 X35.6689 Y56.8392
G1 X35.6589 Y56.8486
G1 X34.5025 Y58.0051
G1 X34.4796 Y58.0007
G1 X34.4032 Y57.9893
G1 X34.3895 Y57.9877
G1 X34.3758 Y57.9866
G1 X34.2987 Y57.9829
G1 X34.2849 Y57.9825
G1 X34.2712 Y57.9829
G1 X34.1940 Y57.9866
G1 X34.1803 Y57.9877
G1 X34.1667 Y57.9893
G1 X34.0902 Y58.0007
G1 X34.0767 Y58.0030
G1 X34.0633 Y58.0060
G1 X33.9883 Y58.0248
G1 X33.9751 Y58.0285
G1 X33.9620 Y58.0328
G1 X33.8893 Y58.0588
G1 X33.8764 Y58.0638
G1 X33.8639 Y58.0693
G1 X33.7940 Y58.1024
G1 X33.7817 Y58.1086
G1 X33.7698 Y58.1153
G1 X33.7035 Y58.1551
G1 X33.6919 Y58.1624
G1 X33.6807 Y58.1703
G1 X33.6186 Y58.2164
G1 X33.6078 Y58.2248
G1 X33.5974 Y58.2338
G1 X33.5401 Y58.2857
G1 X33.5302 Y58.2952
G1 X33.5207 Y58.3051
G1 X33.4688 Y58.3624
G1 X33.4598 Y58.3728
G1 X33.4514 Y58.3836
G1 X33.4053 Y58.4457
G1 X33.3974 Y58.4569
G1 X33.3901 Y58.4685
G1 X33.3503 Y58.5348
G1 X33.3436 Y58.5467
G1 X33.3374 Y58.5590
G1 X33.3043 Y58.6289
G1 X33.2988 Y58.6414
G1 X33.2938 Y58.6543
G1 X33.2678 Y58.7270
G1 X33.2635 Y58.7401
G1 X33.2598 Y58.7533
G1 X33.2410 Y58.8283
G1 X33.2380 Y58.8417
G1 X33.2357 Y58.8552
G1 X33.2243 Y58.9317
G1 X33.2221 Y58.9521
G1 X33.2179 Y59.0362
G1 X33.2175 Y59.0499
G1 X33.2179 Y59.0637
G1 X33.2221 Y59.1477
G1 X33.2243 Y59.1682
G1 X33.2357 Y59.2446
G1 X33.2380 Y59.2582
G1 X33.2410 Y59.2716
G1 X33.2598 Y59.3465
G1 X33.2635 Y59.3598
G1 X33.2678 Y59.3728
G1 X33.2938 Y59.4456
G1 X33.2988 Y59.4584
G1 X33.3043 Y59.4710
G1 X33.3374 Y59.5408
G1 X33.3436 Y59.5531
G1 X33.3503 Y59.5650
G1 X33.3901 Y59.6313
G1 X33.3974 Y59.6429
G1 X33.4053 Y59.6542
G1 X33.4514 Y59.7162
G1 X33.4598 Y59.7271
G1 X33.4688 Y59.7375
G1 X33.5207 Y59.7947
G1 X33.5302 Y59.8047
G1 X33.5401 Y59.8142
G1 X33.5974 Y59.8661
G1 X33.6078 Y59.8750
G1 X33.6186 Y59.8835
G1 X33.6807 Y59.9295
G1 X33.6977 Y59.9412
G1 X33.7757 Y59.9880
G1 X33.7878 Y59.9944
G1 X33.8027 Y60.0015
G1 X32.2272 Y60.0015
G1 X32.2420 Y59.9944
G1 X32.2600 Y59.9845
G1 X32.3263 Y59.9448
G1 X32.3436 Y59.9335
G1 X32.4112 Y59.8835
G1 X32.4221 Y59.8750
G1 X32.4325 Y59.8661
G1 X32.4897 Y59.8142
G1 X32.4997 Y59.8047
G1 X32.5092 Y59.7947
G1 X32.5611 Y59.7375
G1 X32.5700 Y59.7271
G1 X32.5785 Y59.7162
G1 X32.6245 Y59.6542
G1 X32.6324 Y59.6429
G1 X32.6398 Y59.6313
G1 X32.6830 Y59.5591
G1 X32.6925 Y59.5408
G1 X32.7255 Y59.4710
G1 X32.7311 Y59.4584
G1 X32.7360 Y59.4456
G1 X32.7620 Y59.3728
G1 X32.7664 Y59.3598
G1 X32.7700 Y59.3465
G1 X32.7888 Y59.2716
G1 X32.7918 Y59.2582
G1 X32.7942 Y59.2446
G1 X32.8055 Y59.1682
G1 X32.8072 Y59.1545
G1 X32.8082 Y59.1408
G1 X32.8122 Y59.0568
G1 X32.8120 Y59.0362
G1 X32.8082 Y58.9590
G1 X32.8072 Y58.9453
G1 X32.8055 Y58.9317
G1 X32.7942 Y58.8552
G1 X32.7898 Y58.8323
G1 X37.0672 Y54.5549
G1 X72.8068 Y54.5549
G1 X72.8498 Y54.6129
G1 X72.8583 Y54.6237
G1 X72.8673 Y54.6341
G1 X72.9167 Y54.6887
G1 X72.9311 Y54.7034
G1 X72.9907 Y54.7576
G1 X73.0011 Y54.7666
G1 X73.0120 Y54.7750
G1 X73.0711 Y54.8189
G1 X73.0824 Y54.8268
G1 X73.0940 Y54.8342
G1 X73.1572 Y54.8720
G1 X73.1691 Y54.8788
G1 X73.1814 Y54.8850
G1 X73.2480 Y54.9165
G1 X73.2605 Y54.9220
G1 X73.2734 Y54.9270
G1 X73.3427 Y54.9518
G1 X73.3558 Y54.9561
G1 X73.3690 Y54.9598
G1 X73.4405 Y54.9777
G1 X73.4539 Y54.9807
G1 X73.4674 Y54.9830
G1 X73.5403 Y54.9938
G1 X73.5539 Y54.9955
G1 X73.5676 Y54.9965
G1 X73.6412 Y55.0001
G1 X73.6618 Y55.0004
G1 X73.7422 Y54.9965
G1 X73.7559 Y54.9955
G1 X73.7696 Y54.9938
G1 X73.8424 Y54.9830
G1 X73.8560 Y54.9807
G1 X73.8694 Y54.9777
G1 X73.9408 Y54.9598
G1 X73.9541 Y54.9561
G1 X73.9671 Y54.9518
G1 X74.0365 Y54.9270
G1 X74.0493 Y54.9220
G1 X74.0619 Y54.9165
G1 X74.1284 Y54.8850
G1 X74.1407 Y54.8788
G1 X74.1527 Y54.8720
G1 X74.2159 Y54.8342
G1 X74.2275 Y54.8268
G1 X74.2387 Y54.8189
G1 X74.2979 Y54.7750
G1 X74.3087 Y54.7666
G1 X74.3191 Y54.7576
G1 X74.3737 Y54.7081
G1 X74.3836 Y54.6986
G1 X74.3931 Y54.6887
G1 X74.4426 Y54.6341
G1 X74.4516 Y54.6237
G1 X74.4600 Y54.6129
G1 X74.5039 Y54.5537
G1 X74.5118 Y54.5425
G1 X74.5192 Y54.5309
G1 X74.5570 Y54.4677
G1 X74.5638 Y54.4557
G1 X74.5700 Y54.4434
G1 X74.6015 Y54.3769
G1 X74.6070 Y54.3643
G1 X74.6120 Y54.3515
G1 X74.6368 Y54.2821
G1 X74.6411 Y54.2691
G1 X74.6448 Y54.2558
G1 X74.6627 Y54.1844
G1 X74.6657 Y54.1710
G1 X74.6680 Y54.1574
G1 X74.6788 Y54.0846
G1 X74.6805 Y54.0709
G1 X74.6815 Y54.0572
G1 X74.6854 Y53.9768
G1 X74.6851 Y53.9562
G1 X74.6815 Y53.8826
G1 X74.6805 Y53.8689
G1 X74.6788 Y53.8553
G1 X74.6680 Y53.7824
G1 X74.6657 Y53.7689
G1 X74.6627 Y53.7555
G1 X74.6448 Y53.6840
G1 X74.6411 Y53.6708
G1 X74.6368 Y53.6577
G1 X74.6120 Y53.5884
G1 X74.6070 Y53.5755
G1 X74.6015 Y53.5630
G1 X74.5700 Y53.4964
G1 X74.5638 Y53.4841
G1 X74.5570 Y53.4722
G1 X74.5192 Y53.4090
G1 X74.5118 Y53.3974
G1 X74.5039 Y53.3861
G1 X74.4600 Y53.3270
G1 X74.4516 Y53.3161
G1 X74.4426 Y53.3057
G1 X74.3931 Y53.2511
G1 X74.3836 Y53.2412
G1 X74.3737 Y53.2317
G1 X74.3191 Y53.1823
G1 X74.3087 Y53.1733
G1 X74.2979 Y53.1648
G1 X74.2387 Y53.1209
G1 X74.2275 Y53.1130
G1 X74.2159 Y53.1057
G1 X74.1527 Y53.0678
G1 X74.1407 Y53.0610
G1 X74.1284 Y53.0549
G1 X74.0619 Y53.0234
G1 X74.0493 Y53.0178
G1 X74.0365 Y53.0129
G1 X73.9671 Y52.9880
G1 X73.9541 Y52.9837
G1 X73.9408 Y52.9801
G1 X73.8694 Y52.9622
G1 X73.8560 Y52.9592
G1 X73.8424 Y52.9568
G1 X73.7696 Y52.9460
G1 X73.7559 Y52.9443
G1 X73.7422 Y52.9433
G1 X73.6618 Y52.9394
G1 X73.6412 Y52.9397
G1 X73.5676 Y52.9433
G1 X73.5539 Y52.9443
G1 X73.5403 Y52.9460
G1 X73.4674 Y52.9568
G1 X73.4539 Y52.9592
G1 X73.4405 Y52.9622
G1 X73.3690 Y52.9801
G1 X73.3558 Y52.9837
G1 X73.3427 Y52.9880
G1 X73.2734 Y53.0129
G1 X73.2605 Y53.0178
G1 X73.2480 Y53.0234
G1 X73.1814 Y53.0549
G1 X73.1691 Y53.0610
G1 X73.1572 Y53.0678
G1 X73.0940 Y53.1057
G1 X73.0824 Y53.1130
G1 X73.0711 Y53.1209
G1 X73.0120 Y53.1648
G1 X73.0011 Y53.1733
G1 X72.9907 Y53.1823
G1 X72.9311 Y53.2364
G1 X72.9167 Y53.2511
G1 X72.8673 Y53.3057
G1 X72.8583 Y53.3161
G1 X72.8498 Y53.3270
G1 X72.8068 Y53.3850
G1 X36.8249 Y53.3850
G1 X36.8112 Y53.3853
G1 X36.7676 Y53.3878
G1 X36.7539 Y53.3895
G1 X36.7108 Y53.3962
G1 X36.6684 Y53.4065
G1 X36.6551 Y53.4102
G1 X36.6421 Y53.4145
G1 X36.6011 Y53.4295
G1 X36.5614 Y53.4479
G1 X36.5492 Y53.4540
G1 X36.5372 Y53.4608
G1 X36.4999 Y53.4835
G1 X36.4887 Y53.4915
G1 X36.4538 Y53.5177
G1 X36.4434 Y53.5267
G1 X36.4162 Y53.5515
G1 X31.9625 Y58.0051
G1 X31.9396 Y58.0007
G1 X31.8632 Y57.9893
G1 X31.8495 Y57.9877
G1 X31.8358 Y57.9866
G1 X31.7587 Y57.9829
G1 X31.7449 Y57.9825
G1 X31.7312 Y57.9829
G1 X31.6540 Y57.9866
G1 X31.6403 Y57.9877
G1 X31.6267 Y57.9893
G1 X31.5502 Y58.0007
G1 X31.5367 Y58.0030
G1 X31.5233 Y58.0060
G1 X31.4483 Y58.0248
G1 X31.4351 Y58.0285
G1 X31.4220 Y58.0328
G1 X31.3493 Y58.0588
G1 X31.3364 Y58.0638
G1 X31.3239 Y58.0693
G1 X31.2540 Y58.1024
G1 X31.2417 Y58.1086
G1 X31.2298 Y58.1153
G1 X31.1635 Y58.1551
G1 X31.1519 Y58.1624
G1 X31.1407 Y58.1703
G1 X31.0786 Y58.2164
G1 X31.0678 Y58.2248
G1 X31.0574 Y58.2338
G1 X31.0001 Y58.2857
G1 X30.9902 Y58.2952
G1 X30.9807 Y58.3051
G1 X30.9288 Y58.3624
G1 X30.9198 Y58.3728
G1 X30.9114 Y58.3836
G1 X30.8653 Y58.4457
G1 X30.8574 Y58.4569
G1 X30.8501 Y58.4685
G1 X30.8103 Y58.5348
G1 X30.8036 Y58.5467
G1 X30.7974 Y58.5590
G1 X30.7643 Y58.6289
G1 X30.7588 Y58.6414
G1 X30.7538 Y58.6543
G1 X30.7278 Y58.7270
G1 X30.7235 Y58.7401
G1 X30.7198 Y58.7533
G1 X30.7010 Y58.8283
G1 X30.6980 Y58.8417
G1 X30.6957 Y58.8552
G1 X30.6843 Y58.9317
G1 X30.6821 Y58.9521
G1 X30.6779 Y59.0362
G1 X30.6775 Y59.0499
G1 X30.6779 Y59.0637
G1 X30.6816 Y59.1408
G1 X30.6827 Y59.1545
G1 X30.6843 Y59.1682
G1 X30.6957 Y59.2446
G1 X30.6980 Y59.2582
G1 X30.7010 Y59.2716
G1 X30.7198 Y59.3465
G1 X30.7235 Y59.3598
G1 X30.7278 Y59.3728
G1 X30.7538 Y59.4456
G1 X30.7588 Y59.4584
G1 X30.7643 Y59.4710
G1 X30.7974 Y59.5408
G1 X30.8036 Y59.5531
G1 X30.8103 Y59.5650
G1 X30.8501 Y59.6313
G1 X30.8613 Y59.6486
G1 X30.9114 Y59.7162
G1 X30.9198 Y59.7271
G1 X30.9288 Y59.7375
G1 X30.9807 Y59.7947
G1 X30.9902 Y59.8047
G1 X31.0001 Y59.8142
G1 X31.0574 Y59.8661
G1 X31.0678 Y59.8750
G1 X31.0786 Y59.8835
G1 X31.1407 Y59.9295
G1 X31.1577 Y59.9412
G1 X31.2357 Y59.9880
G1 X31.2478 Y59.9944
G1 X31.2627 Y60.0015
G1 X30.2191 Y60.0015
G1 X30.2251 Y59.9929
G1 X30.2325 Y59.9813
G1 X30.2424 Y59.9632
G1 X30.2510 Y59.9445
G1 X30.2582 Y59.9251
G1 X30.2639 Y59.9053
G1 X30.2682 Y59.8852
G1 X30.2710 Y59.8648
G1 X30.2722 Y59.8442
G1 X30.2723 Y58.2625
G1 X30.2720 Y58.2488
G1 X30.2710 Y58.2351
G1 X30.2693 Y58.2214
G1 X30.2669 Y58.2079
G1 X30.2622 Y58.1878
G1 X30.2582 Y58.1747
G1 X30.2536 Y58.1617
G1 X30.2454 Y58.1428
G1 X30.2393 Y58.1305
G1 X30.2325 Y58.1186
G1 X30.2212 Y58.1013
G1 X30.2131 Y58.0903
G1 X30.2043 Y58.0796
G1 X30.1903 Y58.0645
G1 X30.1752 Y58.0505
G1 X30.1646 Y58.0418
G1 X30.1535 Y58.0336
G1 X30.1421 Y58.0260
G1 X30.1303 Y58.0189
G1 X30.1182 Y58.0124
G1 X30.1058 Y58.0065
G1 X30.0931 Y58.0013
G1 X30.0801 Y57.9967
G1 X30.0603 Y57.9909
G1 X30.0402 Y57.9866
G1 X30.0266 Y57.9846
G1 X30.0129 Y57.9833
G1 X29.9923 Y57.9825
G1 X28.4175 Y57.9825
G1 X28.4038 Y57.9829
G1 X28.3901 Y57.9839
G1 X28.3764 Y57.9856
G1 X28.3629 Y57.9879
G1 X28.3495 Y57.9909
G1 X28.3362 Y57.9946
G1 X28.3232 Y57.9989
G1 X28.3104 Y58.0038
G1 X28.2978 Y58.0094
G1 X28.2855 Y58.0156
G1 X28.2736 Y58.0224
G1 X28.2620 Y58.0297
G1 X28.2507 Y58.0376
G1 X28.2399 Y58.0461
G1 X28.2295 Y58.0551
G1 X28.2195 Y58.0645
G1 X28.2101 Y58.0745
G1 X28.2011 Y58.0849
G1 X28.1926 Y58.0957
G1 X28.1847 Y58.1070
G1 X28.1774 Y58.1186
G1 X28.1706 Y58.1305
G1 X28.1644 Y58.1428
G1 X28.1563 Y58.1617
G1 X28.1496 Y58.1812
G1 X28.1459 Y58.1945
G1 X28.1429 Y58.2079
G1 X28.1406 Y58.2214
G1 X28.1389 Y58.2351
G1 X28.1379 Y58.2488
G1 X28.1375 Y58.2625
G1 X28.1376 Y59.8442
G1 X28.1389 Y59.8648
G1 X28.1416 Y59.8852
G1 X28.1459 Y59.9053
G1 X28.1517 Y59.9251
G1 X28.1588 Y59.9445
G1 X28.1674 Y59.9632
G1 X28.1774 Y59.9813
G1 X28.1847 Y59.9929
G1 X28.1908 Y60.0015
G1 X18.5713 Y60.0015
G1 X17.5702 Y59.0005
G1 X17.5682 Y58.9590
G1 X17.5664 Y58.9385
G1 X17.5542 Y58.8552
G1 X17.5504 Y58.8350
G1 X17.5300 Y58.7533
G1 X17.5264 Y58.7401
G1 X17.5220 Y58.7270
G1 X17.4960 Y58.6543
G1 X17.4884 Y58.6351
G1 X17.4525 Y58.5590
G1 X17.4463 Y58.5467
G1 X17.4395 Y58.5348
G1 X17.3998 Y58.4685
G1 X17.3924 Y58.4569
G1 X17.3845 Y58.4457
G1 X17.3385 Y58.3836
G1 X17.3300 Y58.3728
G1 X17.3211 Y58.3624
G1 X17.2692 Y58.3051
G1 X17.2597 Y58.2952
G1 X17.2497 Y58.2857
G1 X17.1925 Y58.2338
G1 X17.1821 Y58.2248
G1 X17.1712 Y58.2164
G1 X17.1092 Y58.1703
G1 X17.0979 Y58.1624
G1 X17.0863 Y58.1551
G1 X17.0200 Y58.1153
G1 X17.0081 Y58.1086
G1 X16.9958 Y58.1024
G1 X16.9260 Y58.0693
G1 X16.9134 Y58.0638
G1 X16.9006 Y58.0588
G1 X16.8213 Y58.0306
G1 X16.8015 Y58.0248
G1 X16.7266 Y58.0060
G1 X16.7132 Y58.0030
G1 X16.6996 Y58.0007
G1 X16.6232 Y57.9893
G1 X16.6027 Y57.9871
G1 X16.5187 Y57.9829
G1 X16.5049 Y57.9825
G1 X16.4912 Y57.9829
G1 X16.4140 Y57.9866
G1 X16.4003 Y57.9877
G1 X16.3867 Y57.9893
G1 X16.3102 Y58.0007
G1 X16.2967 Y58.0030
G1 X16.2833 Y58.0060
G1 X16.2083 Y58.0248
G1 X16.1951 Y58.0285
G1 X16.1820 Y58.0328
G1 X16.1093 Y58.0588
G1 X16.0964 Y58.0638
G1 X16.0839 Y58.0693
G1 X16.0140 Y58.1024
G1 X16.0017 Y58.1086
G1 X15.9898 Y58.1153
G1 X15.9235 Y58.1551
G1 X15.9119 Y58.1624
G1 X15.9007 Y58.1703
G1 X15.8386 Y58.2164
G1 X15.8278 Y58.2248
G1 X15.8174 Y58.2338
G1 X15.7601 Y58.2857
G1 X15.7502 Y58.2952
G1 X15.7407 Y58.3051
G1 X15.6888 Y58.3624
G1 X15.6798 Y58.3728
G1 X15.6714 Y58.3836
G1 X15.6253 Y58.4457
G1 X15.6174 Y58.4569
G1 X15.6101 Y58.4685
G1 X15.5703 Y58.5348
G1 X15.5636 Y58.5467
G1 X15.5574 Y58.5590
G1 X15.5243 Y58.6289
G1 X15.5188 Y58.6414
G1 X15.5138 Y58.6543
G1 X15.4878 Y58.7270
G1 X15.4835 Y58.7401
G1 X15.4798 Y58.7533
G1 X15.4610 Y58.8283
G1 X15.4580 Y58.8417
G1 X15.4557 Y58.8552
G1 X15.4434 Y58.9385
G1 X15.4416 Y58.9590
G1 X15.4379 Y59.0362
G1 X15.4375 Y59.0499
G1 X15.4379 Y59.0637
G1 X15.4416 Y59.1408
G1 X15.4427 Y59.1545
G1 X15.4443 Y59.1682
G1 X15.4557 Y59.2446
G1 X15.4580 Y59.2582
G1 X15.4610 Y59.2716
G1 X15.4798 Y59.3465
G1 X15.4835 Y59.3598
G1 X15.4878 Y59.3728
G1 X15.5162 Y59.4520
G1 X15.5243 Y59.4710
G1 X15.5574 Y59.5408
G1 X15.5636 Y59.5531
G1 X15.5703 Y59.5650
G1 X15.6101 Y59.6313
G1 X15.6174 Y59.6429
G1 X15.6253 Y59.6542
G1 X15.6714 Y59.7162
G1 X15.6798 Y59.7271
G1 X15.6888 Y59.7375
G1 X15.7407 Y59.7947
G1 X15.7551 Y59.8095
G1 X15.8174 Y59.8661
G1 X15.8278 Y59.8750
G1 X15.8386 Y59.8835
G1 X15.9007 Y59.9295
G1 X15.9119 Y59.9374
G1 X15.9235 Y59.9448
G1 X15.9898 Y59.9845
G1 X16.0017 Y59.9913
G1 X16.0140 Y59.9975
G1 X16.0901 Y60.0334
G1 X16.1093 Y60.0410
G1 X16.1820 Y60.0670
G1 X16.1951 Y60.0714
G1 X16.2083 Y60.0750
G1 X16.2900 Y60.0954
G1 X16.3102 Y60.0992
G1 X16.3935 Y60.1114
G1 X16.4140 Y60.1132
G1 X16.4555 Y60.1152
G1 X17.6875 Y61.3472
G1 X17.6974 Y61.3567
G1 X17.7395 Y61.3947
G1 X17.7556 Y61.4076
G1 X17.7957 Y61.4373
G1 X17.8069 Y61.4452
G1 X17.8185 Y61.4526
G1 X17.8613 Y61.4782
G1 X17.8733 Y61.4850
G1 X17.8855 Y61.4912
G1 X17.9306 Y61.5125
G1 X17.9432 Y61.5180
G1 X17.9560 Y61.5230
G1 X18.0030 Y61.5398
G1 X18.0160 Y61.5441
G1 X18.0293 Y61.5478
G1 X18.0777 Y61.5599
G1 X18.0911 Y61.5629
G1 X18.1046 Y61.5652
G1 X18.1539 Y61.5726
G1 X18.1744 Y61.5748
G1 X18.2311 Y61.5777
G1 X18.2448 Y61.5780
G1 X47.1283 Y61.5780
G1 X47.2284 Y61.6781
G1 X47.2293 Y61.6909
G1 X47.2310 Y61.7046
G1 X47.2418 Y61.7774
G1 X47.2442 Y61.7910
G1 X47.2472 Y61.8044
G1 X47.2651 Y61.8758
G1 X47.2687 Y61.8891
G1 X47.2730 Y61.9021
G1 X47.2979 Y61.9715
G1 X47.3028 Y61.9843
G1 X47.3084 Y61.9969
G1 X47.3399 Y62.0634
G1 X47.3460 Y62.0757
G1 X47.3528 Y62.0877
G1 X47.3907 Y62.1509
G1 X47.3980 Y62.1625
G1 X47.4059 Y62.1737
G1 X47.4498 Y62.2329
G1 X47.4583 Y62.2437
G1 X47.4673 Y62.2541
G1 X47.5167 Y62.3087
G1 X47.5262 Y62.3186
G1 X47.5361 Y62.3281
G1 X47.5907 Y62.3776
G1 X47.6011 Y62.3866
G1 X47.6120 Y62.3950
G1 X47.6711 Y62.4389
G1 X47.6824 Y62.4468
G1 X47.6940 Y62.4542
G1 X47.7572 Y62.4920
G1 X47.7691 Y62.4988
G1 X47.7814 Y62.5050
G1 X47.8480 Y62.5365
G1 X47.8605 Y62.5420
G1 X47.8734 Y62.5470
G1 X47.9492 Y62.5740
G1 X47.9690 Y62.5798
G1 X48.0405 Y62.5977
G1 X48.0606 Y62.6019
G1 X48.1403 Y62.6138
G1 X48.1539 Y62.6155
G1 X48.1667 Y62.6165
G1 X48.7367 Y63.1864
G1 X48.7367 Y65.8612
G1 X48.7262 Y65.8712
G1 X48.7167 Y65.8811
G1 X48.6607 Y65.9429
G1 X48.6517 Y65.9533
G1 X48.6432 Y65.9641
G1 X48.5936 Y66.0311
G1 X48.5857 Y66.0423
G1 X48.5783 Y66.0539
G1 X48.5354 Y66.1255
G1 X48.5287 Y66.1374
G1 X48.5225 Y66.1497
G1 X48.4868 Y66.2251
G1 X48.4813 Y66.2376
G1 X48.4763 Y66.2504
G1 X48.4482 Y66.3290
G1 X48.4439 Y66.3420
G1 X48.4403 Y66.3552
G1 X48.4200 Y66.4361
G1 X48.4170 Y66.4495
G1 X48.4146 Y66.4631
G1 X48.4024 Y66.5456
G1 X48.4007 Y66.5592
G1 X48.3997 Y66.5729
G1 X48.3956 Y66.6562
G1 X48.3953 Y66.6699
G1 X48.3956 Y66.6837
G1 X48.3997 Y66.7669
G1 X48.4007 Y66.7806
G1 X48.4024 Y66.7943
G1 X48.4146 Y66.8768
G1 X48.4170 Y66.8903
G1 X48.4200 Y66.9037
G1 X48.4403 Y66.9846
G1 X48.4439 Y66.9978
G1 X48.4482 Y67.0109
G1 X48.4763 Y67.0894
G1 X48.4813 Y67.1022
G1 X48.4868 Y67.1148
G1 X48.5225 Y67.1901
G1 X48.5287 Y67.2024
G1 X48.5354 Y67.2144
G1 X48.5783 Y67.2859
G1 X48.5857 Y67.2975
G1 X48.5936 Y67.3087
G1 X48.6432 Y67.3757
G1 X48.6517 Y67.3865
G1 X48.6607 Y67.3970
G1 X48.7167 Y67.4587
G1 X48.7262 Y67.4687
G1 X48.7361 Y67.4782
G1 X48.7979 Y67.5342
G1 X48.8083 Y67.5431
G1 X48.8191 Y67.5516
G1 X48.8861 Y67.6013
G1 X48.8973 Y67.6092
G1 X48.9089 Y67.6165
G1 X48.9805 Y67.6594
G1 X48.9924 Y67.6662
G1 X49.0047 Y67.6723
G1 X49.0801 Y67.7080
G1 X49.0926 Y67.7136
G1 X49.1054 Y67.7185
G1 X49.1840 Y67.7466
G1 X49.1970 Y67.7509
G1 X49.2102 Y67.7546
G1 X49.2911 Y67.7748
G1 X49.3045 Y67.7778
G1 X49.3181 Y67.7802
G1 X49.4074 Y67.7933
G1 X49.4279 Y67.7951
G1 X49.5112 Y67.7992
G1 X49.5249 Y67.7995
G1 X49.5387 Y67.7992
G1 X49.6219 Y67.7951
G1 X49.6356 Y67.7941
G1 X49.6493 Y67.7924
G1 X49.7318 Y67.7802
G1 X49.7453 Y67.7778
G1 X49.7587 Y67.7748
G1 X49.8396 Y67.7546
G1 X49.8528 Y67.7509
G1 X49.8659 Y67.7466
G1 X49.9444 Y67.7185
G1 X49.9572 Y67.7136
G1 X49.9698 Y67.7080
G1 X50.0451 Y67.6723
G1 X50.0574 Y67.6662
G1 X50.0694 Y67.6594
G1 X50.1409 Y67.6165
G1 X50.1525 Y67.6092
G1 X50.1637 Y67.6013
G1 X50.2307 Y67.5516
G1 X50.2415 Y67.5431
G1 X50.2520 Y67.5342
G1 X50.3137 Y67.4782
G1 X50.3237 Y67.4687
G1 X50.3337 Y67.4582
G1 X69.1266 Y67.4582
G1 X69.1574 Y67.4861
G1 X69.1731 Y67.4993
G1 X69.2407 Y67.5495
G1 X69.2577 Y67.5612
G1 X69.3298 Y67.6045
G1 X69.3417 Y67.6113
G1 X69.3540 Y67.6175
G1 X69.4239 Y67.6505
G1 X69.4428 Y67.6586
G1 X69.5220 Y67.6870
G1 X69.5351 Y67.6914
G1 X69.5483 Y67.6950
G1 X69.6233 Y67.7138
G1 X69.6367 Y67.7168
G1 X69.6502 Y67.7192
G1 X69.7267 Y67.7305
G1 X69.7403 Y67.7322
G1 X69.7540 Y67.7332
G1 X69.8312 Y67.7370
G1 X69.8449 Y67.7373
G1 X69.8587 Y67.7370
G1 X69.9358 Y67.7332
G1 X69.9495 Y67.7322
G1 X69.9632 Y67.7305
G1 X70.0396 Y67.7192
G1 X70.0532 Y67.7168
G1 X70.0666 Y67.7138
G1 X70.1415 Y67.6950
G1 X70.1548 Y67.6914
G1 X70.1678 Y67.6870
G1 X70.2470 Y67.6586
G1 X70.2660 Y67.6505
G1 X70.3358 Y67.6175
G1 X70.3481 Y67.6113
G1 X70.3600 Y67.6045
G1 X70.4322 Y67.5612
G1 X70.4492 Y67.5495
G1 X70.5167 Y67.4993
G1 X70.5325 Y67.4861
G1 X70.5632 Y67.4582
G1 X71.6666 Y67.4582
G1 X71.6974 Y67.4861
G1 X71.7131 Y67.4993
G1 X71.7807 Y67.5495
G1 X71.7977 Y67.5612
G1 X71.8698 Y67.6045
G1 X71.8817 Y67.6113
G1 X71.8940 Y67.6175
G1 X71.9639 Y67.6505
G1 X71.9828 Y67.6586
G1 X72.0620 Y67.6870
G1 X72.0751 Y67.6914
G1 X72.0883 Y67.6950
G1 X72.1633 Y67.7138
G1 X72.1767 Y67.7168
G1 X72.1902 Y67.7192
G1 X72.2667 Y67.7305
G1 X72.2803 Y67.7322
G1 X72.2940 Y67.7332
G1 X72.3712 Y67.7370
G1 X72.3849 Y67.7373
G1 X72.3987 Y67.7370
G1 X72.4758 Y67.7332
